HIGHLIGHTS SAT.cube
LUT_3D_SIZE 5
0.0000000000 0.0000000000 0.0000000000
0.2480506600 0.0000000000 0.0000000000
0.4951247425 0.0000000000 0.0000000000
0.7402304112 0.0000000000 0.0000000000
0.9833981842 0.0000000000 0.0000000000
0.0000000000 0.2392614633 0.0000000000
0.2324254215 0.2324254215 0.0000000000
0.4736400397 0.2236362249 0.0000000000
0.7128862440 0.2138704509 0.0000000000
0.9511711299 0.2021515221 0.0000000000
0.0000000000 0.4589913787 0.0000000000
0.1972686351 0.4472724498 0.0000000000
0.4326237888 0.4326237888 0.0000000000
0.6669871061 0.4169985504 0.0000000000
0.9003891051 0.4003967346 0.0000000000
0.0000000000 0.6611276417 0.0000000000
0.1445334554 0.6435492485 0.0000000000
0.3750057221 0.6249942779 0.0000000000
0.6044861524 0.6044861524 0.0000000000
0.8330052644 0.5830014496 0.0000000000
0.0000000000 0.8476539254 0.0000000000
0.0761730373 0.8251926452 0.0000000000
0.3027389944 0.8027313649 0.0000000000
0.5283131151 0.7783169299 0.0000000000
0.7539024949 0.7539024949 0.0000000000
0.0000000000 0.0000000000 0.2490272374
0.2470740826 0.0000000000 0.2470740826
0.4931715877 0.0000000000 0.2431677729
0.7373006790 0.0000000000 0.2382848859
0.9804684520 0.0000000000 0.2314488441
0.0000000000 0.2363317311 0.2363317311
0.2294956893 0.2294956893 0.2294956893
0.4697337301 0.2207064927 0.2207064927
0.7089799344 0.2099641413 0.2099641413
0.9472648203 0.1972686351 0.1972686351
0.0000000000 0.4550850690 0.2050812543
0.1923857481 0.4423895628 0.1923857481
0.4277409018 0.4277409018 0.1777370871
0.6621042191 0.4121156634 0.1621118486
0.8945296407 0.3945372702 0.1445334554
0.0000000000 0.6552681773 0.1562523842
0.1376974136 0.6376897841 0.1376974136
0.3681696803 0.6181582361 0.1191424430
0.5976501106 0.5976501106 0.0976577401
0.8251926452 0.5761654078 0.0761730373
0.0000000000 0.8398413062 0.0908216983
0.0683604181 0.8183566033 0.0683604181
0.2949263752 0.7949187457 0.0449225605
0.5205004959 0.7695277333 0.0205081254
0.7451132982 0.7451132982 0.0000000000
0.0000000000 0.0000000000 0.4980544747
0.2460975051 0.0000000000 0.4961013199
0.4912184329 0.0000000000 0.4912184329
0.7353475242 0.0000000000 0.4863355459
0.9775387198 0.0000000000 0.4785229267
0.0000000000 0.2343785763 0.4843823911
0.2265659571 0.2265659571 0.4765697719
0.4668039979 0.2168001831 0.4668039979
0.7050736248 0.2060578317 0.4550850690
0.9423819333 0.1933623255 0.4423895628
0.0000000000 0.4511787594 0.4511787594
0.1875028611 0.4375066758 0.4375066758
0.4228580148 0.4228580148 0.4228580148
0.6562447547 0.4062561990 0.4062561990
0.8876935988 0.3886778058 0.3886778058
0.0000000000 0.6494087129 0.3994201572
0.1318379492 0.6308537423 0.3808651865
0.3613336385 0.6113221942 0.3613336385
0.5898374914 0.5898374914 0.3408255131
0.8183566033 0.5683527886 0.3183642329
0.0000000000 0.8330052644 0.3330128939
0.0605477989 0.8105439841 0.3105516136
0.2871137560 0.7861295491 0.2871137560
0.5117112993 0.7617151141 0.2617227436
0.7363241016 0.7363241016 0.2363317311
0.0000000000 0.0000000000 0.7470664530
0.2451209277 0.0000000000 0.7441367208
0.4902418555 0.0000000000 0.7392538338
0.7333943694 0.0000000000 0.7333943694
0.9746089876 0.0000000000 0.7255817502
0.0000000000 0.2324254215 0.7314412146
0.2236362249 0.2236362249 0.7226520180
0.4628976883 0.2128938735 0.7128862440
0.7011673152 0.2011749447 0.7011673152
0.9374990463 0.1884794385 0.6874952316
0.0000000000 0.4462958724 0.6962844282
0.1826199741 0.4326237888 0.6826123445
0.4169985504 0.4169985504 0.6669871061
0.6503852903 0.4003967346 0.6503852903
0.8818341344 0.3818417639 0.6318303197
0.0000000000 0.6435492485 0.6435492485
0.1250019074 0.6249942779 0.6249942779
0.3544975967 0.6044861524 0.6044861524
0.5830014496 0.5830014496 0.5830014496
0.8105439841 0.5605401694 0.5605401694
0.0000000000 0.8251926452 0.5751888304
0.0527351797 0.8017547875 0.5527275502
0.2783245594 0.7783169299 0.5283131151
0.5029221027 0.7529259174 0.5029221027
0.7265583276 0.7265583276 0.4775463493
0.0000000000 0.0000000000 0.9960936904
0.2431677729 0.0000000000 0.9931639582
0.4882887007 0.0000000000 0.9873044938
0.7304646372 0.0000000000 0.9804684520
0.9716792554 0.0000000000 0.9716792554
0.0000000000 0.2294956893 0.9785152972
0.2207064927 0.2207064927 0.9697261006
0.4589913787 0.2099641413 0.9589837491
0.6962844282 0.1972686351 0.9462882429
0.9326161593 0.1835965515 0.9326161593
0.0000000000 0.4414129854 0.9414053559
0.1777370871 0.4277409018 0.9267566949
0.4111390860 0.4111390860 0.9111314565
0.6435492485 0.3945372702 0.8935530632
0.8749980926 0.3750057221 0.8749980926
0.0000000000 0.6367132067 0.8867170214
0.1181658656 0.6181582361 0.8671854734
0.3476615549 0.5966735332 0.8466773480
0.5751888304 0.5751888304 0.8251926452
0.8017547875 0.5527275502 0.8017547875
0.0000000000 0.8173800259 0.8173800259
0.0449225605 0.7939421683 0.7939421683
0.2695353628 0.7695277333 0.7695277333
0.4941481651 0.7441367208 0.7441367208
0.7177691310 0.7177691310 0.7177691310
