HIGHLIGHTS SAT.cube
LUT_3D_SIZE 33
0.0000000000 0.0000000000 0.0000000000
0.0302738994 0.0000000000 0.0000000000
0.0615243763 0.0000000000 0.0000000000
0.0927748531 0.0000000000 0.0000000000
0.1240253300 0.0000000000 0.0000000000
0.1542992294 0.0000000000 0.0000000000
0.1855497063 0.0000000000 0.0000000000
0.2168001831 0.0000000000 0.0000000000
0.2480506600 0.0000000000 0.0000000000
0.2783245594 0.0000000000 0.0000000000
0.3095750362 0.0000000000 0.0000000000
0.3408255131 0.0000000000 0.0000000000
0.3710994125 0.0000000000 0.0000000000
0.4023498894 0.0000000000 0.0000000000
0.4326237888 0.0000000000 0.0000000000
0.4638742657 0.0000000000 0.0000000000
0.4951247425 0.0000000000 0.0000000000
0.5253833829 0.0000000000 0.0000000000
0.5556572824 0.0000000000 0.0000000000
0.5869077592 0.0000000000 0.0000000000
0.6171816587 0.0000000000 0.0000000000
0.6484321355 0.0000000000 0.0000000000
0.6787060349 0.0000000000 0.0000000000
0.7089799344 0.0000000000 0.0000000000
0.7402304112 0.0000000000 0.0000000000
0.7705043107 0.0000000000 0.0000000000
0.8007782101 0.0000000000 0.0000000000
0.8310521096 0.0000000000 0.0000000000
0.8613260090 0.0000000000 0.0000000000
0.8915999084 0.0000000000 0.0000000000
0.9228503853 0.0000000000 0.0000000000
0.9531242847 0.0000000000 0.0000000000
0.9833981842 0.0000000000 0.0000000000
0.0000000000 0.0302738994 0.0000000000
0.0302738994 0.0302738994 0.0000000000
0.0615243763 0.0302738994 0.0000000000
0.0917982757 0.0292973220 0.0000000000
0.1230487526 0.0292973220 0.0000000000
0.1542992294 0.0292973220 0.0000000000
0.1855497063 0.0292973220 0.0000000000
0.2158236057 0.0292973220 0.0000000000
0.2470740826 0.0283207446 0.0000000000
0.2783245594 0.0283207446 0.0000000000
0.3085984588 0.0283207446 0.0000000000
0.3398489357 0.0273441672 0.0000000000
0.3701228351 0.0273441672 0.0000000000
0.4013733120 0.0263675898 0.0000000000
0.4316472114 0.0263675898 0.0000000000
0.4628976883 0.0253910124 0.0000000000
0.4931715877 0.0253910124 0.0000000000
0.5244068055 0.0244144350 0.0000000000
0.5546807050 0.0244144350 0.0000000000
0.5849546044 0.0234378576 0.0000000000
0.6162050813 0.0224612802 0.0000000000
0.6464789807 0.0224612802 0.0000000000
0.6767528801 0.0214847028 0.0000000000
0.7080033570 0.0205081254 0.0000000000
0.7382772564 0.0195315480 0.0000000000
0.7685511559 0.0195315480 0.0000000000
0.7988250553 0.0185549706 0.0000000000
0.8290989548 0.0175783932 0.0000000000
0.8593728542 0.0166018158 0.0000000000
0.8896467536 0.0156252384 0.0000000000
0.9199206531 0.0146486610 0.0000000000
0.9501945525 0.0136720836 0.0000000000
0.9814450294 0.0126955062 0.0000000000
0.0000000000 0.0605477989 0.0000000000
0.0292973220 0.0605477989 0.0000000000
0.0605477989 0.0605477989 0.0000000000
0.0917982757 0.0605477989 0.0000000000
0.1220721752 0.0595712215 0.0000000000
0.1533226520 0.0595712215 0.0000000000
0.1845731289 0.0595712215 0.0000000000
0.2148470283 0.0585946441 0.0000000000
0.2460975051 0.0585946441 0.0000000000
0.2763714046 0.0585946441 0.0000000000
0.3076218814 0.0576180667 0.0000000000
0.3378957809 0.0576180667 0.0000000000
0.3691462577 0.0566414893 0.0000000000
0.3994201572 0.0566414893 0.0000000000
0.4306706340 0.0556649119 0.0000000000
0.4609445335 0.0546883345 0.0000000000
0.4912184329 0.0546883345 0.0000000000
0.5224536507 0.0537117571 0.0000000000
0.5527275502 0.0527351797 0.0000000000
0.5830014496 0.0527351797 0.0000000000
0.6132753491 0.0517586023 0.0000000000
0.6445258259 0.0507820249 0.0000000000
0.6747997253 0.0498054475 0.0000000000
0.7050736248 0.0498054475 0.0000000000
0.7353475242 0.0488288701 0.0000000000
0.7656214237 0.0478522927 0.0000000000
0.7958953231 0.0468757153 0.0000000000
0.8261692226 0.0458991379 0.0000000000
0.8564431220 0.0449225605 0.0000000000
0.8867170214 0.0439459831 0.0000000000
0.9169909209 0.0429694057 0.0000000000
0.9472648203 0.0419928283 0.0000000000
0.9775387198 0.0410162509 0.0000000000
0.0000000000 0.0917982757 0.0000000000
0.0283207446 0.0908216983 0.0000000000
0.0595712215 0.0908216983 0.0000000000
0.0908216983 0.0908216983 0.0000000000
0.1210955978 0.0898451209 0.0000000000
0.1523460746 0.0898451209 0.0000000000
0.1826199741 0.0888685435 0.0000000000
0.2138704509 0.0888685435 0.0000000000
0.2441443503 0.0878919661 0.0000000000
0.2753948272 0.0878919661 0.0000000000
0.3056687266 0.0869153887 0.0000000000
0.3359426261 0.0869153887 0.0000000000
0.3671931029 0.0859388113 0.0000000000
0.3974670024 0.0849622339 0.0000000000
0.4277409018 0.0849622339 0.0000000000
0.4589913787 0.0839856565 0.0000000000
0.4892652781 0.0830090791 0.0000000000
0.5195239185 0.0830090791 0.0000000000
0.5497978180 0.0820325017 0.0000000000
0.5810482948 0.0810559243 0.0000000000
0.6113221942 0.0800793469 0.0000000000
0.6415960937 0.0791027695 0.0000000000
0.6718699931 0.0781261921 0.0000000000
0.7021438926 0.0781261921 0.0000000000
0.7324177920 0.0771496147 0.0000000000
0.7626916915 0.0761730373 0.0000000000
0.7929655909 0.0751964599 0.0000000000
0.8232394903 0.0742198825 0.0000000000
0.8535133898 0.0732433051 0.0000000000
0.8837872892 0.0722667277 0.0000000000
0.9140611887 0.0703135729 0.0000000000
0.9433585107 0.0693369955 0.0000000000
0.9736324102 0.0683604181 0.0000000000
0.0000000000 0.1210955978 0.0000000000
0.0273441672 0.1210955978 0.0000000000
0.0585946441 0.1210955978 0.0000000000
0.0888685435 0.1201190204 0.0000000000
0.1201190204 0.1201190204 0.0000000000
0.1503929198 0.1191424430 0.0000000000
0.1816433967 0.1191424430 0.0000000000
0.2119172961 0.1181658656 0.0000000000
0.2421911955 0.1171892882 0.0000000000
0.2734416724 0.1171892882 0.0000000000
0.3037155718 0.1162127108 0.0000000000
0.3339894713 0.1152361334 0.0000000000
0.3652399481 0.1152361334 0.0000000000
0.3955138476 0.1142595560 0.0000000000
0.4257877470 0.1132829786 0.0000000000
0.4560616464 0.1132829786 0.0000000000
0.4863355459 0.1123064012 0.0000000000
0.5165941863 0.1113298238 0.0000000000
0.5478446632 0.1103532464 0.0000000000
0.5781185626 0.1093766690 0.0000000000
0.6083924620 0.1084000916 0.0000000000
0.6386663615 0.1074235142 0.0000000000
0.6689402609 0.1064469368 0.0000000000
0.6992141604 0.1054703593 0.0000000000
0.7294880598 0.1044937819 0.0000000000
0.7587853819 0.1035172045 0.0000000000
0.7890592813 0.1025406271 0.0000000000
0.8193331807 0.1015640497 0.0000000000
0.8496070802 0.1005874723 0.0000000000
0.8798809796 0.0996108949 0.0000000000
0.9101548791 0.0976577401 0.0000000000
0.9394522011 0.0966811627 0.0000000000
0.9697261006 0.0957045853 0.0000000000
0.0000000000 0.1513694972 0.0000000000
0.0263675898 0.1503929198 0.0000000000
0.0566414893 0.1503929198 0.0000000000
0.0869153887 0.1494163424 0.0000000000
0.1181658656 0.1494163424 0.0000000000
0.1484397650 0.1484397650 0.0000000000
0.1796902419 0.1484397650 0.0000000000
0.2099641413 0.1474631876 0.0000000000
0.2402380407 0.1464866102 0.0000000000
0.2705119402 0.1464866102 0.0000000000
0.3017624170 0.1455100328 0.0000000000
0.3320363165 0.1445334554 0.0000000000
0.3623102159 0.1435568780 0.0000000000
0.3925841154 0.1425803006 0.0000000000
0.4228580148 0.1425803006 0.0000000000
0.4531319142 0.1416037232 0.0000000000
0.4834058137 0.1406271458 0.0000000000
0.5136644541 0.1396505684 0.0000000000
0.5439383536 0.1386739910 0.0000000000
0.5742122530 0.1376974136 0.0000000000
0.6044861524 0.1367208362 0.0000000000
0.6347600519 0.1357442588 0.0000000000
0.6650339513 0.1347676814 0.0000000000
0.6953078508 0.1337911040 0.0000000000
0.7255817502 0.1328145266 0.0000000000
0.7558556497 0.1308613718 0.0000000000
0.7861295491 0.1298847944 0.0000000000
0.8154268711 0.1289082170 0.0000000000
0.8457007706 0.1279316396 0.0000000000
0.8759746700 0.1269550622 0.0000000000
0.9052719921 0.1250019074 0.0000000000
0.9355458915 0.1240253300 0.0000000000
0.9658197910 0.1230487526 0.0000000000
0.0000000000 0.1806668193 0.0000000000
0.0244144350 0.1806668193 0.0000000000
0.0546883345 0.1796902419 0.0000000000
0.0849622339 0.1787136645 0.0000000000
0.1162127108 0.1787136645 0.0000000000
0.1464866102 0.1777370871 0.0000000000
0.1767605097 0.1767605097 0.0000000000
0.2070344091 0.1767605097 0.0000000000
0.2382848859 0.1757839322 0.0000000000
0.2685587854 0.1748073548 0.0000000000
0.2988326848 0.1738307774 0.0000000000
0.3291065843 0.1728542000 0.0000000000
0.3593804837 0.1718776226 0.0000000000
0.3896543832 0.1709010452 0.0000000000
0.4199282826 0.1699244678 0.0000000000
0.4502021820 0.1699244678 0.0000000000
0.4804760815 0.1689478904 0.0000000000
0.5107347219 0.1669947356 0.0000000000
0.5410086213 0.1660181582 0.0000000000
0.5712825208 0.1650415808 0.0000000000
0.6015564202 0.1640650034 0.0000000000
0.6318303197 0.1630884260 0.0000000000
0.6611276417 0.1621118486 0.0000000000
0.6914015412 0.1611352712 0.0000000000
0.7216754406 0.1601586938 0.0000000000
0.7519493400 0.1582055390 0.0000000000
0.7812466621 0.1572289616 0.0000000000
0.8115205615 0.1562523842 0.0000000000
0.8417944610 0.1542992294 0.0000000000
0.8710917830 0.1533226520 0.0000000000
0.9013656825 0.1523460746 0.0000000000
0.9316395819 0.1503929198 0.0000000000
0.9609369039 0.1494163424 0.0000000000
0.0000000000 0.2099641413 0.0000000000
0.0224612802 0.2089875639 0.0000000000
0.0527351797 0.2089875639 0.0000000000
0.0830090791 0.2080109865 0.0000000000
0.1132829786 0.2070344091 0.0000000000
0.1435568780 0.2060578317 0.0000000000
0.1748073548 0.2060578317 0.0000000000
0.2050812543 0.2050812543 0.0000000000
0.2353551537 0.2041046769 0.0000000000
0.2656290532 0.2031280995 0.0000000000
0.2959029526 0.2021515221 0.0000000000
0.3261768521 0.2011749447 0.0000000000
0.3564507515 0.2001983673 0.0000000000
0.3867246509 0.1992217899 0.0000000000
0.4169985504 0.1982452125 0.0000000000
0.4472724498 0.1972686351 0.0000000000
0.4775463493 0.1962920577 0.0000000000
0.5068284123 0.1953154803 0.0000000000
0.5371023117 0.1943389029 0.0000000000
0.5673762112 0.1933623255 0.0000000000
0.5976501106 0.1914091707 0.0000000000
0.6279240101 0.1904325933 0.0000000000
0.6572213321 0.1894560159 0.0000000000
0.6874952316 0.1884794385 0.0000000000
0.7177691310 0.1865262837 0.0000000000
0.7470664530 0.1855497063 0.0000000000
0.7773403525 0.1845731289 0.0000000000
0.8076142519 0.1826199741 0.0000000000
0.8369115740 0.1816433967 0.0000000000
0.8671854734 0.1796902419 0.0000000000
0.8964827955 0.1787136645 0.0000000000
0.9267566949 0.1767605097 0.0000000000
0.9560540169 0.1757839322 0.0000000000
0.0000000000 0.2392614633 0.0000000000
0.0195315480 0.2382848859 0.0000000000
0.0498054475 0.2373083085 0.0000000000
0.0800793469 0.2363317311 0.0000000000
0.1113298238 0.2353551537 0.0000000000
0.1416037232 0.2353551537 0.0000000000
0.1718776226 0.2343785763 0.0000000000
0.2021515221 0.2334019989 0.0000000000
0.2324254215 0.2324254215 0.0000000000
0.2626993210 0.2314488441 0.0000000000
0.2929732204 0.2304722667 0.0000000000
0.3232471199 0.2294956893 0.0000000000
0.3525444419 0.2285191119 0.0000000000
0.3828183413 0.2275425345 0.0000000000
0.4130922408 0.2255893797 0.0000000000
0.4433661402 0.2246128023 0.0000000000
0.4736400397 0.2236362249 0.0000000000
0.5038986801 0.2226596475 0.0000000000
0.5331960021 0.2216830701 0.0000000000
0.5634699016 0.2197299153 0.0000000000
0.5937438010 0.2187533379 0.0000000000
0.6230411231 0.2177767605 0.0000000000
0.6533150225 0.2158236057 0.0000000000
0.6835889220 0.2148470283 0.0000000000
0.7128862440 0.2138704509 0.0000000000
0.7431601434 0.2119172961 0.0000000000
0.7724574655 0.2109407187 0.0000000000
0.8027313649 0.2089875639 0.0000000000
0.8320286870 0.2080109865 0.0000000000
0.8623025864 0.2060578317 0.0000000000
0.8915999084 0.2050812543 0.0000000000
0.9218738079 0.2031280995 0.0000000000
0.9511711299 0.2021515221 0.0000000000
0.0000000000 0.2675822080 0.0000000000
0.0166018158 0.2666056306 0.0000000000
0.0468757153 0.2656290532 0.0000000000
0.0771496147 0.2646524758 0.0000000000
0.1074235142 0.2636758984 0.0000000000
0.1376974136 0.2626993210 0.0000000000
0.1679713130 0.2617227436 0.0000000000
0.1982452125 0.2607461662 0.0000000000
0.2285191119 0.2597695888 0.0000000000
0.2587930114 0.2587930114 0.0000000000
0.2890669108 0.2578164340 0.0000000000
0.3193408103 0.2568398566 0.0000000000
0.3496147097 0.2558632792 0.0000000000
0.3798886091 0.2548867018 0.0000000000
0.4091859312 0.2529335470 0.0000000000
0.4394598306 0.2519569696 0.0000000000
0.4697337301 0.2509803922 0.0000000000
0.4990310521 0.2500038148 0.0000000000
0.5292896925 0.2480506600 0.0000000000
0.5595635920 0.2470740826 0.0000000000
0.5888609140 0.2460975051 0.0000000000
0.6191348135 0.2441443503 0.0000000000
0.6484321355 0.2431677729 0.0000000000
0.6787060349 0.2412146181 0.0000000000
0.7080033570 0.2402380407 0.0000000000
0.7382772564 0.2382848859 0.0000000000
0.7675745785 0.2373083085 0.0000000000
0.7978484779 0.2353551537 0.0000000000
0.8271458000 0.2343785763 0.0000000000
0.8564431220 0.2324254215 0.0000000000
0.8867170214 0.2304722667 0.0000000000
0.9160143435 0.2294956893 0.0000000000
0.9462882429 0.2275425345 0.0000000000
0.0000000000 0.2959029526 0.0000000000
0.0136720836 0.2949263752 0.0000000000
0.0439459831 0.2939497978 0.0000000000
0.0742198825 0.2929732204 0.0000000000
0.1044937819 0.2919966430 0.0000000000
0.1347676814 0.2910200656 0.0000000000
0.1650415808 0.2900434882 0.0000000000
0.1953154803 0.2890669108 0.0000000000
0.2246128023 0.2871137560 0.0000000000
0.2548867018 0.2861371786 0.0000000000
0.2851606012 0.2851606012 0.0000000000
0.3154345006 0.2841840238 0.0000000000
0.3447318227 0.2832074464 0.0000000000
0.3750057221 0.2812542916 0.0000000000
0.4052796216 0.2802777142 0.0000000000
0.4345769436 0.2793011368 0.0000000000
0.4648508431 0.2773479820 0.0000000000
0.4951247425 0.2763714046 0.0000000000
0.5244068055 0.2744182498 0.0000000000
0.5546807050 0.2734416724 0.0000000000
0.5839780270 0.2724650950 0.0000000000
0.6142519265 0.2705119402 0.0000000000
0.6435492485 0.2695353628 0.0000000000
0.6738231479 0.2675822080 0.0000000000
0.7031204700 0.2656290532 0.0000000000
0.7324177920 0.2646524758 0.0000000000
0.7626916915 0.2626993210 0.0000000000
0.7919890135 0.2617227436 0.0000000000
0.8212863355 0.2597695888 0.0000000000
0.8515602350 0.2578164340 0.0000000000
0.8808575570 0.2568398566 0.0000000000
0.9101548791 0.2548867018 0.0000000000
0.9394522011 0.2529335470 0.0000000000
0.0000000000 0.3232471199 0.0000000000
0.0107423514 0.3222705425 0.0000000000
0.0410162509 0.3212939651 0.0000000000
0.0712901503 0.3203173877 0.0000000000
0.1005874723 0.3193408103 0.0000000000
0.1308613718 0.3183642329 0.0000000000
0.1611352712 0.3173876555 0.0000000000
0.1914091707 0.3164110780 0.0000000000
0.2207064927 0.3144579232 0.0000000000
0.2509803922 0.3134813458 0.0000000000
0.2812542916 0.3125047684 0.0000000000
0.3115281910 0.3115281910 0.0000000000
0.3408255131 0.3095750362 0.0000000000
0.3710994125 0.3085984588 0.0000000000
0.4003967346 0.3066453040 0.0000000000
0.4306706340 0.3056687266 0.0000000000
0.4599679561 0.3046921492 0.0000000000
0.4902418555 0.3027389944 0.0000000000
0.5195239185 0.3017624170 0.0000000000
0.5497978180 0.2998092622 0.0000000000
0.5790951400 0.2988326848 0.0000000000
0.6093690394 0.2968795300 0.0000000000
0.6386663615 0.2949263752 0.0000000000
0.6679636835 0.2939497978 0.0000000000
0.6982375830 0.2919966430 0.0000000000
0.7275349050 0.2900434882 0.0000000000
0.7568322271 0.2890669108 0.0000000000
0.7871061265 0.2871137560 0.0000000000
0.8164034485 0.2851606012 0.0000000000
0.8457007706 0.2841840238 0.0000000000
0.8749980926 0.2822308690 0.0000000000
0.9042954147 0.2802777142 0.0000000000
0.9345693141 0.2783245594 0.0000000000
0.0000000000 0.3515678645 0.0000000000
0.0068360418 0.3505912871 0.0000000000
0.0371099413 0.3496147097 0.0000000000
0.0673838407 0.3476615549 0.0000000000
0.0966811627 0.3466849775 0.0000000000
0.1269550622 0.3457084001 0.0000000000
0.1572289616 0.3447318227 0.0000000000
0.1865262837 0.3427786679 0.0000000000
0.2168001831 0.3418020905 0.0000000000
0.2470740826 0.3408255131 0.0000000000
0.2763714046 0.3388723583 0.0000000000
0.3066453040 0.3378957809 0.0000000000
0.3359426261 0.3359426261 0.0000000000
0.3662165255 0.3349660487 0.0000000000
0.3955138476 0.3330128939 0.0000000000
0.4257877470 0.3320363165 0.0000000000
0.4550850690 0.3300831617 0.0000000000
0.4853589685 0.3291065843 0.0000000000
0.5146410315 0.3271534295 0.0000000000
0.5439383536 0.3261768521 0.0000000000
0.5742122530 0.3242236973 0.0000000000
0.6035095750 0.3222705425 0.0000000000
0.6328068971 0.3212939651 0.0000000000
0.6630807965 0.3193408103 0.0000000000
0.6923781186 0.3173876555 0.0000000000
0.7216754406 0.3164110780 0.0000000000
0.7509727626 0.3144579232 0.0000000000
0.7802700847 0.3125047684 0.0000000000
0.8105439841 0.3105516136 0.0000000000
0.8398413062 0.3085984588 0.0000000000
0.8691386282 0.3066453040 0.0000000000
0.8984359503 0.3056687266 0.0000000000
0.9277332723 0.3037155718 0.0000000000
0.0000000000 0.3789120317 0.0000000000
0.0029297322 0.3779354543 0.0000000000
0.0332036316 0.3759822995 0.0000000000
0.0625009537 0.3750057221 0.0000000000
0.0927748531 0.3740291447 0.0000000000
0.1230487526 0.3720759899 0.0000000000
0.1523460746 0.3710994125 0.0000000000
0.1826199741 0.3701228351 0.0000000000
0.2119172961 0.3681696803 0.0000000000
0.2421911955 0.3671931029 0.0000000000
0.2714885176 0.3652399481 0.0000000000
0.3017624170 0.3642633707 0.0000000000
0.3310597391 0.3623102159 0.0000000000
0.3613336385 0.3613336385 0.0000000000
0.3906309606 0.3593804837 0.0000000000
0.4209048600 0.3584039063 0.0000000000
0.4502021820 0.3564507515 0.0000000000
0.4794995041 0.3544975967 0.0000000000
0.5097581445 0.3535210193 0.0000000000
0.5390554665 0.3515678645 0.0000000000
0.5683527886 0.3496147097 0.0000000000
0.5976501106 0.3486381323 0.0000000000
0.6269474327 0.3466849775 0.0000000000
0.6572213321 0.3447318227 0.0000000000
0.6865186542 0.3427786679 0.0000000000
0.7158159762 0.3408255131 0.0000000000
0.7451132982 0.3388723583 0.0000000000
0.7744106203 0.3378957809 0.0000000000
0.8037079423 0.3359426261 0.0000000000
0.8330052644 0.3339894713 0.0000000000
0.8623025864 0.3320363165 0.0000000000
0.8915999084 0.3300831617 0.0000000000
0.9208972305 0.3281300069 0.0000000000
0.0000000000 0.4052796216 0.0000000000
0.0000000000 0.4043030442 0.0000000000
0.0283207446 0.4033264668 0.0000000000
0.0585946441 0.4023498894 0.0000000000
0.0878919661 0.4003967346 0.0000000000
0.1181658656 0.3994201572 0.0000000000
0.1474631876 0.3974670024 0.0000000000
0.1777370871 0.3964904250 0.0000000000
0.2070344091 0.3945372702 0.0000000000
0.2373083085 0.3935606928 0.0000000000
0.2666056306 0.3916075380 0.0000000000
0.2968795300 0.3906309606 0.0000000000
0.3261768521 0.3886778058 0.0000000000
0.3554741741 0.3867246509 0.0000000000
0.3857480735 0.3857480735 0.0000000000
0.4150453956 0.3837949187 0.0000000000
0.4443427176 0.3818417639 0.0000000000
0.4746166171 0.3808651865 0.0000000000
0.5038986801 0.3789120317 0.0000000000
0.5331960021 0.3769588769 0.0000000000
0.5624933242 0.3750057221 0.0000000000
0.5917906462 0.3740291447 0.0000000000
0.6210879683 0.3720759899 0.0000000000
0.6503852903 0.3701228351 0.0000000000
0.6806591897 0.3681696803 0.0000000000
0.7099565118 0.3662165255 0.0000000000
0.7392538338 0.3642633707 0.0000000000
0.7685511559 0.3623102159 0.0000000000
0.7978484779 0.3603570611 0.0000000000
0.8271458000 0.3584039063 0.0000000000
0.8554665446 0.3564507515 0.0000000000
0.8847638666 0.3544975967 0.0000000000
0.9140611887 0.3525444419 0.0000000000
0.0000000000 0.4326237888 0.0000000000
0.0000000000 0.4316472114 0.0000000000
0.0244144350 0.4296940566 0.0000000000
0.0537117571 0.4287174792 0.0000000000
0.0839856565 0.4267643244 0.0000000000
0.1132829786 0.4257877470 0.0000000000
0.1435568780 0.4238345922 0.0000000000
0.1728542000 0.4228580148 0.0000000000
0.2021515221 0.4209048600 0.0000000000
0.2324254215 0.4199282826 0.0000000000
0.2617227436 0.4179751278 0.0000000000
0.2910200656 0.4160219730 0.0000000000
0.3212939651 0.4150453956 0.0000000000
0.3505912871 0.4130922408 0.0000000000
0.3798886091 0.4111390860 0.0000000000
0.4091859312 0.4091859312 0.0000000000
0.4384832532 0.4082093538 0.0000000000
0.4687571527 0.4062561990 0.0000000000
0.4980544747 0.4043030442 0.0000000000
0.5273365377 0.4023498894 0.0000000000
0.5566338598 0.4003967346 0.0000000000
0.5859311818 0.3984435798 0.0000000000
0.6152285039 0.3964904250 0.0000000000
0.6445258259 0.3945372702 0.0000000000
0.6738231479 0.3925841154 0.0000000000
0.7031204700 0.3906309606 0.0000000000
0.7324177920 0.3886778058 0.0000000000
0.7617151141 0.3867246509 0.0000000000
0.7910124361 0.3847714961 0.0000000000
0.8203097581 0.3828183413 0.0000000000
0.8496070802 0.3808651865 0.0000000000
0.8779278248 0.3789120317 0.0000000000
0.9072251469 0.3769588769 0.0000000000
0.0000000000 0.4589913787 0.0000000000
0.0000000000 0.4580148013 0.0000000000
0.0195315480 0.4560616464 0.0000000000
0.0488288701 0.4550850690 0.0000000000
0.0781261921 0.4531319142 0.0000000000
0.1084000916 0.4511787594 0.0000000000
0.1376974136 0.4502021820 0.0000000000
0.1669947356 0.4482490272 0.0000000000
0.1972686351 0.4472724498 0.0000000000
0.2265659571 0.4453192950 0.0000000000
0.2558632792 0.4433661402 0.0000000000
0.2861371786 0.4414129854 0.0000000000
0.3154345006 0.4404364080 0.0000000000
0.3447318227 0.4384832532 0.0000000000
0.3740291447 0.4365300984 0.0000000000
0.4033264668 0.4345769436 0.0000000000
0.4326237888 0.4326237888 0.0000000000
0.4619211109 0.4306706340 0.0000000000
0.4912184329 0.4287174792 0.0000000000
0.5205004959 0.4277409018 0.0000000000
0.5497978180 0.4257877470 0.0000000000
0.5790951400 0.4238345922 0.0000000000
0.6083924620 0.4218814374 0.0000000000
0.6376897841 0.4199282826 0.0000000000
0.6669871061 0.4169985504 0.0000000000
0.6962844282 0.4150453956 0.0000000000
0.7255817502 0.4130922408 0.0000000000
0.7548790723 0.4111390860 0.0000000000
0.7841763943 0.4091859312 0.0000000000
0.8124971389 0.4072327764 0.0000000000
0.8417944610 0.4052796216 0.0000000000
0.8710917830 0.4023498894 0.0000000000
0.9003891051 0.4003967346 0.0000000000
0.0000000000 0.4853589685 0.0000000000
0.0000000000 0.4843823911 0.0000000000
0.0136720836 0.4824292363 0.0000000000
0.0439459831 0.4804760815 0.0000000000
0.0732433051 0.4794995041 0.0000000000
0.1025406271 0.4775463493 0.0000000000
0.1328145266 0.4755931945 0.0000000000
0.1621118486 0.4746166171 0.0000000000
0.1914091707 0.4726634623 0.0000000000
0.2207064927 0.4707103075 0.0000000000
0.2500038148 0.4687571527 0.0000000000
0.2802777142 0.4668039979 0.0000000000
0.3095750362 0.4658274205 0.0000000000
0.3388723583 0.4638742657 0.0000000000
0.3681696803 0.4619211109 0.0000000000
0.3974670024 0.4599679561 0.0000000000
0.4267643244 0.4580148013 0.0000000000
0.4560616464 0.4560616464 0.0000000000
0.4853589685 0.4541084916 0.0000000000
0.5146410315 0.4521553368 0.0000000000
0.5439383536 0.4502021820 0.0000000000
0.5732356756 0.4482490272 0.0000000000
0.6025329976 0.4462958724 0.0000000000
0.6308537423 0.4443427176 0.0000000000
0.6601510643 0.4423895628 0.0000000000
0.6894483864 0.4394598306 0.0000000000
0.7187457084 0.4375066758 0.0000000000
0.7480430304 0.4355535210 0.0000000000
0.7763637751 0.4336003662 0.0000000000
0.8056610971 0.4306706340 0.0000000000
0.8349584192 0.4287174792 0.0000000000
0.8632791638 0.4267643244 0.0000000000
0.8925764858 0.4248111696 0.0000000000
0.0000000000 0.5117112993 0.0000000000
0.0000000000 0.5097581445 0.0000000000
0.0087891966 0.5078049897 0.0000000000
0.0380865187 0.5068284123 0.0000000000
0.0673838407 0.5048752575 0.0000000000
0.0966811627 0.5029221027 0.0000000000
0.1269550622 0.5009689479 0.0000000000
0.1562523842 0.5000076295 0.0000000000
0.1855497063 0.4980544747 0.0000000000
0.2148470283 0.4961013199 0.0000000000
0.2441443503 0.4941481651 0.0000000000
0.2734416724 0.4921950103 0.0000000000
0.3027389944 0.4902418555 0.0000000000
0.3320363165 0.4882887007 0.0000000000
0.3613336385 0.4863355459 0.0000000000
0.3906309606 0.4843823911 0.0000000000
0.4199282826 0.4824292363 0.0000000000
0.4492256046 0.4804760815 0.0000000000
0.4785229267 0.4785229267 0.0000000000
0.5078049897 0.4765697719 0.0000000000
0.5371023117 0.4746166171 0.0000000000
