HIGHLIGHTS + SHADOWS SAT.cube
LUT_3D_SIZE 5
0.0195315480 0.0195315480 0.0195315480
0.7568322271 0.0000000000 0.0000000000
0.9990234226 0.0000000000 0.0000000000
0.9990234226 0.0000000000 0.0000000000
0.9990234226 0.0000000000 0.0000000000
0.0000000000 0.4638742657 0.0000000000
0.4091859312 0.4091859312 0.0000000000
0.7382772564 0.3691462577 0.0000000000
0.9990234226 0.3378957809 0.0000000000
0.9990234226 0.3125047684 0.0000000000
0.0000000000 0.6542915999 0.0000000000
0.3037155718 0.6074158846 0.0000000000
0.5673762112 0.5673762112 0.0000000000
0.8007782101 0.5341725795 0.0000000000
0.9990234226 0.5038986801 0.0000000000
0.0000000000 0.7831998169 0.0000000000
0.2431677729 0.7431601434 0.0000000000
0.4609445335 0.7109330892 0.0000000000
0.6767528801 0.6767528801 0.0000000000
0.8915999084 0.6415960937 0.0000000000
0.0000000000 0.9140611887 0.0000000000
0.1298847944 0.8798809796 0.0000000000
0.3437552453 0.8427710384 0.0000000000
0.5566338598 0.8066376745 0.0000000000
0.7695277333 0.7695277333 0.0000000000
0.0087891966 0.0087891966 0.9990234226
0.6757763027 0.0000000000 0.6757763027
0.9990234226 0.0000000000 0.5361257343
0.9990234226 0.0000000000 0.4570382238
0.9990234226 0.0000000000 0.4043030442
0.0000000000 0.4433661402 0.4433661402
0.3945372702 0.3945372702 0.3945372702
0.7148393988 0.3574273289 0.3574273289
0.9853513390 0.3281300069 0.3281300069
0.9990234226 0.3046921492 0.3046921492
0.0000000000 0.6376897841 0.3183642329
0.2968795300 0.5937438010 0.2968795300
0.5556572824 0.5556572824 0.2783245594
0.7851529717 0.5234302281 0.2617227436
0.9941405356 0.4941481651 0.2441443503
0.0000000000 0.7685511559 0.2558632792
0.2324254215 0.7324177920 0.2324254215
0.4492256046 0.6992141604 0.1992217899
0.6650339513 0.6650339513 0.1650415808
0.8798809796 0.6298771649 0.1298847944
0.0000000000 0.9023422599 0.1533226520
0.1181658656 0.8671854734 0.1181658656
0.3310597391 0.8310521096 0.0810559243
0.5439383536 0.7939421683 0.0439459831
0.7568322271 0.7568322271 0.0078126192
0.0000000000 0.0000000000 0.9990234226
0.6171816587 0.0000000000 0.9990234226
0.9990234226 0.0000000000 0.9990234226
0.9990234226 0.0000000000 0.8749980926
0.9990234226 0.0000000000 0.7802700847
0.0000000000 0.4248111696 0.8496070802
0.3808651865 0.3808651865 0.7617151141
0.6943312734 0.3466849775 0.6943312734
0.9599603265 0.3203173877 0.6396429389
0.9990234226 0.2978561074 0.5956969558
0.0000000000 0.6220645457 0.6220645457
0.2900434882 0.5800717174 0.5800717174
0.5439383536 0.5439383536 0.5439383536
0.7695277333 0.5136644541 0.5136644541
0.9833981842 0.4834058137 0.4834058137
0.0000000000 0.7539024949 0.5029221027
0.2216830701 0.7206988632 0.4716868849
0.4375066758 0.6874952316 0.4375066758
0.6533150225 0.6533150225 0.4033264668
0.8671854734 0.6171816587 0.3681696803
0.0000000000 0.8906233310 0.3906309606
0.1054703593 0.8544899672 0.3554741741
0.3183642329 0.8183566033 0.3183642329
0.5312428473 0.7812466621 0.2812542916
0.7451132982 0.7451132982 0.2460975051
0.0000000000 0.0000000000 0.9990234226
0.5712825208 0.0000000000 0.9990234226
0.9580071717 0.0000000000 0.9990234226
0.9990234226 0.0000000000 0.9990234226
0.9990234226 0.0000000000 0.9990234226
0.0000000000 0.4082093538 0.9990234226
0.3681696803 0.3681696803 0.9990234226
0.6738231479 0.3369192035 0.9990234226
0.9355458915 0.3115281910 0.9355458915
0.9990234226 0.2910200656 0.8720683604
0.0000000000 0.6064393072 0.9101548791
0.2832074464 0.5673762112 0.8505836576
0.5331960021 0.5331960021 0.7998016327
0.7558556497 0.5038986801 0.7558556497
0.9716792554 0.4726634623 0.7226520180
0.0000000000 0.7421835660 0.7421835660
0.2099641413 0.7099565118 0.7099565118
0.4257877470 0.6757763027 0.6757763027
0.6406195163 0.6406195163 0.6406195163
0.8544899672 0.6054627298 0.6054627298
0.0000000000 0.8789044022 0.6289005875
0.0927748531 0.8427710384 0.5927672236
0.3056687266 0.8056610971 0.5556572824
0.5185473411 0.7685511559 0.5185473411
0.7343709468 0.7343709468 0.4843823911
0.0000000000 0.0000000000 0.9990234226
0.5341725795 0.0000000000 0.9990234226
0.9121080339 0.0000000000 0.9990234226
0.9990234226 0.0000000000 0.9990234226
0.9990234226 0.0000000000 0.9990234226
0.0000000000 0.3935606928 0.9990234226
0.3574273289 0.3574273289 0.9990234226
0.6562447547 0.3281300069 0.9990234226
0.9130846113 0.3046921492 0.9990234226
0.9990234226 0.2841840238 0.9990234226
0.0000000000 0.5927672236 0.9990234226
0.2773479820 0.5546807050 0.9990234226
0.5224536507 0.5224536507 0.9990234226
0.7431601434 0.4931715877 0.9931639582
0.9609369039 0.4609445335 0.9609369039
0.0000000000 0.7314412146 0.9814450294
0.1992217899 0.6982375830 0.9482413977
0.4140688182 0.6640573739 0.9140611887
0.6289005875 0.6289005875 0.8789044022
0.8427710384 0.5927672236 0.8427710384
0.0000000000 0.8662088960 0.8662088960
0.0810559243 0.8300755322 0.8300755322
0.2929732204 0.7929655909 0.7929655909
0.5058518349 0.7558556497 0.7558556497
0.7226520180 0.7226520180 0.7226520180
