HIGHLIGHTS + SHADOWS SAT.cube
LUT_3D_SIZE 33
0.0195315480 0.0195315480 0.0195315480
0.1445334554 0.0195315480 0.0195315480
0.2646524758 0.0146486610 0.0146486610
0.3808651865 0.0058594644 0.0058594644
0.4843823911 0.0000000000 0.0000000000
0.5605401694 0.0000000000 0.0000000000
0.6318303197 0.0000000000 0.0000000000
0.6972610056 0.0000000000 0.0000000000
0.7568322271 0.0000000000 0.0000000000
0.8144502937 0.0000000000 0.0000000000
0.8691386282 0.0000000000 0.0000000000
0.9199206531 0.0000000000 0.0000000000
0.9687495232 0.0000000000 0.0000000000
0.9990234226 0.0000000000 0.0000000000
0.9990234226 0.0000000000 0.0000000000
0.9990234226 0.0000000000 0.0000000000
0.9990234226 0.0000000000 0.0000000000
0.9990234226 0.0000000000 0.0000000000
0.9990234226 0.0000000000 0.0000000000
0.9990234226 0.0000000000 0.0000000000
0.9990234226 0.0000000000 0.0000000000
0.9990234226 0.0000000000 0.0000000000
0.9990234226 0.0000000000 0.0000000000
0.9990234226 0.0000000000 0.0000000000
0.9990234226 0.0000000000 0.0000000000
0.9990234226 0.0000000000 0.0000000000
0.9990234226 0.0000000000 0.0000000000
0.9990234226 0.0000000000 0.0000000000
0.9990234226 0.0000000000 0.0000000000
0.9990234226 0.0000000000 0.0000000000
0.9990234226 0.0000000000 0.0000000000
0.9990234226 0.0000000000 0.0000000000
0.9990234226 0.0000000000 0.0000000000
0.0097657740 0.1347676814 0.0097657740
0.1259784848 0.1259784848 0.0009765774
0.2324254215 0.1162127108 0.0000000000
0.3252002747 0.1084000916 0.0000000000
0.4091859312 0.1025406271 0.0000000000
0.4843823911 0.0966811627 0.0000000000
0.5546807050 0.0927748531 0.0000000000
0.6210879683 0.0888685435 0.0000000000
0.6816357671 0.0849622339 0.0000000000
0.7402304112 0.0820325017 0.0000000000
0.7949187457 0.0791027695 0.0000000000
0.8466773480 0.0771496147 0.0000000000
0.8974593729 0.0751964599 0.0000000000
0.9453116655 0.0722667277 0.0000000000
0.9912108034 0.0712901503 0.0000000000
0.9990234226 0.0693369955 0.0000000000
0.9990234226 0.0673838407 0.0000000000
0.9990234226 0.0654306859 0.0000000000
0.9990234226 0.0644541085 0.0000000000
0.9990234226 0.0634775311 0.0000000000
0.9990234226 0.0615243763 0.0000000000
0.9990234226 0.0605477989 0.0000000000
0.9990234226 0.0595712215 0.0000000000
0.9990234226 0.0585946441 0.0000000000
0.9990234226 0.0576180667 0.0000000000
0.9990234226 0.0566414893 0.0000000000
0.9990234226 0.0556649119 0.0000000000
0.9990234226 0.0546883345 0.0000000000
0.9990234226 0.0537117571 0.0000000000
0.9990234226 0.0527351797 0.0000000000
0.9990234226 0.0527351797 0.0000000000
0.9990234226 0.0517586023 0.0000000000
0.9990234226 0.0507820249 0.0000000000
0.0000000000 0.2119172961 0.0000000000
0.1005874723 0.2011749447 0.0000000000
0.1914091707 0.1914091707 0.0000000000
0.2734416724 0.1826199741 0.0000000000
0.3505912871 0.1748073548 0.0000000000
0.4209048600 0.1689478904 0.0000000000
0.4882887007 0.1630884260 0.0000000000
0.5507743954 0.1572289616 0.0000000000
0.6103456168 0.1523460746 0.0000000000
0.6669871061 0.1484397650 0.0000000000
0.7216754406 0.1445334554 0.0000000000
0.7724574655 0.1406271458 0.0000000000
0.8222629129 0.1367208362 0.0000000000
0.8710917830 0.1337911040 0.0000000000
0.9160143435 0.1308613718 0.0000000000
0.9609369039 0.1279316396 0.0000000000
0.9990234226 0.1259784848 0.0000000000
0.9990234226 0.1230487526 0.0000000000
0.9990234226 0.1210955978 0.0000000000
0.9990234226 0.1181658656 0.0000000000
0.9990234226 0.1162127108 0.0000000000
0.9990234226 0.1142595560 0.0000000000
0.9990234226 0.1123064012 0.0000000000
0.9990234226 0.1103532464 0.0000000000
0.9990234226 0.1084000916 0.0000000000
0.9990234226 0.1074235142 0.0000000000
0.9990234226 0.1054703593 0.0000000000
0.9990234226 0.1044937819 0.0000000000
0.9990234226 0.1025406271 0.0000000000
0.9990234226 0.1015640497 0.0000000000
0.9990234226 0.0996108949 0.0000000000
0.9990234226 0.0986343175 0.0000000000
0.9990234226 0.0976577401 0.0000000000
0.0000000000 0.2685587854 0.0000000000
0.0859388113 0.2587930114 0.0000000000
0.1660181582 0.2500038148 0.0000000000
0.2412146181 0.2412146181 0.0000000000
0.3115281910 0.2334019989 0.0000000000
0.3779354543 0.2265659571 0.0000000000
0.4404364080 0.2197299153 0.0000000000
0.5000076295 0.2148470283 0.0000000000
0.5566338598 0.2089875639 0.0000000000
0.6122987716 0.2041046769 0.0000000000
0.6640573739 0.1992217899 0.0000000000
0.7148393988 0.1953154803 0.0000000000
0.7626916915 0.1904325933 0.0000000000
0.8105439841 0.1865262837 0.0000000000
0.8554665446 0.1835965515 0.0000000000
0.8994125277 0.1796902419 0.0000000000
0.9414053559 0.1767605097 0.0000000000
0.9824216068 0.1738307774 0.0000000000
0.9990234226 0.1709010452 0.0000000000
0.9990234226 0.1679713130 0.0000000000
0.9990234226 0.1650415808 0.0000000000
0.9990234226 0.1621118486 0.0000000000
0.9990234226 0.1601586938 0.0000000000
0.9990234226 0.1572289616 0.0000000000
0.9990234226 0.1552758068 0.0000000000
0.9990234226 0.1533226520 0.0000000000
0.9990234226 0.1513694972 0.0000000000
0.9990234226 0.1484397650 0.0000000000
0.9990234226 0.1464866102 0.0000000000
0.9990234226 0.1455100328 0.0000000000
0.9990234226 0.1435568780 0.0000000000
0.9990234226 0.1416037232 0.0000000000
0.9990234226 0.1396505684 0.0000000000
0.0000000000 0.3164110780 0.0000000000
0.0771496147 0.3076218814 0.0000000000
0.1494163424 0.2988326848 0.0000000000
0.2177767605 0.2900434882 0.0000000000
0.2832074464 0.2832074464 0.0000000000
0.3447318227 0.2753948272 0.0000000000
0.4043030442 0.2695353628 0.0000000000
0.4609445335 0.2636758984 0.0000000000
0.5146410315 0.2578164340 0.0000000000
0.5673762112 0.2519569696 0.0000000000
0.6181582361 0.2470740826 0.0000000000
0.6669871061 0.2421911955 0.0000000000
0.7138628214 0.2382848859 0.0000000000
0.7597619593 0.2334019989 0.0000000000
0.8037079423 0.2294956893 0.0000000000
0.8466773480 0.2255893797 0.0000000000
0.8876935988 0.2216830701 0.0000000000
0.9287098497 0.2187533379 0.0000000000
0.9687495232 0.2148470283 0.0000000000
0.9990234226 0.2119172961 0.0000000000
0.9990234226 0.2089875639 0.0000000000
0.9990234226 0.2060578317 0.0000000000
0.9990234226 0.2031280995 0.0000000000
0.9990234226 0.2001983673 0.0000000000
0.9990234226 0.1972686351 0.0000000000
0.9990234226 0.1953154803 0.0000000000
0.9990234226 0.1923857481 0.0000000000
0.9990234226 0.1904325933 0.0000000000
0.9990234226 0.1875028611 0.0000000000
0.9990234226 0.1855497063 0.0000000000
0.9990234226 0.1835965515 0.0000000000
0.9990234226 0.1806668193 0.0000000000
0.9990234226 0.1787136645 0.0000000000
0.0000000000 0.3584039063 0.0000000000
0.0703135729 0.3505912871 0.0000000000
0.1367208362 0.3418020905 0.0000000000
0.2001983673 0.3339894713 0.0000000000
0.2617227436 0.3261768521 0.0000000000
0.3193408103 0.3193408103 0.0000000000
0.3759822995 0.3134813458 0.0000000000
0.4296940566 0.3066453040 0.0000000000
0.4814526589 0.3007858396 0.0000000000
0.5322194247 0.2959029526 0.0000000000
0.5810482948 0.2900434882 0.0000000000
0.6279240101 0.2851606012 0.0000000000
0.6728465705 0.2802777142 0.0000000000
0.7177691310 0.2763714046 0.0000000000
0.7607385367 0.2714885176 0.0000000000
0.8027313649 0.2675822080 0.0000000000
0.8427710384 0.2636758984 0.0000000000
0.8828107118 0.2597695888 0.0000000000
0.9218738079 0.2558632792 0.0000000000
0.9589837491 0.2519569696 0.0000000000
0.9960936904 0.2490272374 0.0000000000
0.9990234226 0.2460975051 0.0000000000
0.9990234226 0.2421911955 0.0000000000
0.9990234226 0.2392614633 0.0000000000
0.9990234226 0.2363317311 0.0000000000
0.9990234226 0.2334019989 0.0000000000
0.9990234226 0.2304722667 0.0000000000
0.9990234226 0.2275425345 0.0000000000
0.9990234226 0.2255893797 0.0000000000
0.9990234226 0.2226596475 0.0000000000
0.9990234226 0.2207064927 0.0000000000
0.9990234226 0.2177767605 0.0000000000
0.9990234226 0.2158236057 0.0000000000
0.0000000000 0.3974670024 0.0000000000
0.0644541085 0.3896543832 0.0000000000
0.1269550622 0.3808651865 0.0000000000
0.1865262837 0.3730525673 0.0000000000
0.2441443503 0.3662165255 0.0000000000
0.2998092622 0.3593804837 0.0000000000
0.3525444419 0.3525444419 0.0000000000
0.4043030442 0.3466849775 0.0000000000
0.4541084916 0.3408255131 0.0000000000
0.5029221027 0.3349660487 0.0000000000
0.5497978180 0.3300831617 0.0000000000
0.5947203784 0.3242236973 0.0000000000
0.6386663615 0.3193408103 0.0000000000
0.6826123445 0.3144579232 0.0000000000
0.7236285954 0.3105516136 0.0000000000
0.7646448463 0.3056687266 0.0000000000
0.8046845197 0.3017624170 0.0000000000
0.8427710384 0.2978561074 0.0000000000
0.8808575570 0.2939497978 0.0000000000
0.9179674983 0.2900434882 0.0000000000
0.9541008621 0.2861371786 0.0000000000
0.9892576486 0.2832074464 0.0000000000
0.9990234226 0.2793011368 0.0000000000
0.9990234226 0.2763714046 0.0000000000
0.9990234226 0.2724650950 0.0000000000
0.9990234226 0.2695353628 0.0000000000
0.9990234226 0.2666056306 0.0000000000
0.9990234226 0.2636758984 0.0000000000
0.9990234226 0.2607461662 0.0000000000
0.9990234226 0.2578164340 0.0000000000
0.9990234226 0.2548867018 0.0000000000
0.9990234226 0.2529335470 0.0000000000
0.9990234226 0.2500038148 0.0000000000
0.0000000000 0.4316472114 0.0000000000
0.0605477989 0.4238345922 0.0000000000
0.1191424430 0.4160219730 0.0000000000
0.1748073548 0.4091859312 0.0000000000
0.2294956893 0.4013733120 0.0000000000
0.2822308690 0.3945372702 0.0000000000
0.3330128939 0.3886778058 0.0000000000
0.3828183413 0.3828183413 0.0000000000
0.4296940566 0.3759822995 0.0000000000
0.4765697719 0.3710994125 0.0000000000
0.5214770733 0.3652399481 0.0000000000
0.5654230564 0.3603570611 0.0000000000
0.6083924620 0.3544975967 0.0000000000
0.6503852903 0.3505912871 0.0000000000
0.6904249638 0.3457084001 0.0000000000
0.7304646372 0.3408255131 0.0000000000
0.7695277333 0.3369192035 0.0000000000
0.8066376745 0.3320363165 0.0000000000
0.8447241932 0.3281300069 0.0000000000
0.8798809796 0.3242236973 0.0000000000
0.9160143435 0.3203173877 0.0000000000
0.9501945525 0.3164110780 0.0000000000
0.9843747616 0.3134813458 0.0000000000
0.9990234226 0.3095750362 0.0000000000
0.9990234226 0.3066453040 0.0000000000
0.9990234226 0.3027389944 0.0000000000
0.9990234226 0.2998092622 0.0000000000
0.9990234226 0.2968795300 0.0000000000
0.9990234226 0.2939497978 0.0000000000
0.9990234226 0.2910200656 0.0000000000
0.9990234226 0.2871137560 0.0000000000
0.9990234226 0.2851606012 0.0000000000
0.9990234226 0.2822308690 0.0000000000
0.0000000000 0.4638742657 0.0000000000
0.0566414893 0.4560616464 0.0000000000
0.1123064012 0.4492256046 0.0000000000
0.1660181582 0.4414129854 0.0000000000
0.2177767605 0.4345769436 0.0000000000
0.2675822080 0.4277409018 0.0000000000
0.3164110780 0.4218814374 0.0000000000
0.3632867933 0.4150453956 0.0000000000
0.4091859312 0.4091859312 0.0000000000
0.4541084916 0.4043030442 0.0000000000
0.4980544747 0.3984435798 0.0000000000
0.5400320439 0.3925841154 0.0000000000
0.5820248722 0.3877012284 0.0000000000
0.6220645457 0.3828183413 0.0000000000
0.6621042191 0.3779354543 0.0000000000
0.7001907378 0.3740291447 0.0000000000
0.7382772564 0.3691462577 0.0000000000
0.7753871977 0.3642633707 0.0000000000
0.8115205615 0.3603570611 0.0000000000
0.8466773480 0.3564507515 0.0000000000
0.8818341344 0.3525444419 0.0000000000
0.9150377661 0.3486381323 0.0000000000
0.9482413977 0.3447318227 0.0000000000
0.9814450294 0.3408255131 0.0000000000
0.9990234226 0.3378957809 0.0000000000
0.9990234226 0.3339894713 0.0000000000
0.9990234226 0.3310597391 0.0000000000
0.9990234226 0.3271534295 0.0000000000
0.9990234226 0.3242236973 0.0000000000
0.9990234226 0.3212939651 0.0000000000
0.9990234226 0.3183642329 0.0000000000
0.9990234226 0.3154345006 0.0000000000
0.9990234226 0.3125047684 0.0000000000
0.0000000000 0.4931715877 0.0000000000
0.0537117571 0.4863355459 0.0000000000
0.1064469368 0.4785229267 0.0000000000
0.1572289616 0.4716868849 0.0000000000
0.2070344091 0.4648508431 0.0000000000
0.2548867018 0.4580148013 0.0000000000
0.3017624170 0.4521553368 0.0000000000
0.3466849775 0.4462958724 0.0000000000
0.3916075380 0.4404364080 0.0000000000
0.4345769436 0.4345769436 0.0000000000
0.4765697719 0.4287174792 0.0000000000
0.5175707637 0.4238345922 0.0000000000
0.5576104372 0.4179751278 0.0000000000
0.5976501106 0.4130922408 0.0000000000
0.6357366293 0.4082093538 0.0000000000
0.6738231479 0.4043030442 0.0000000000
0.7099565118 0.3994201572 0.0000000000
0.7460898756 0.3945372702 0.0000000000
0.7812466621 0.3906309606 0.0000000000
0.8164034485 0.3867246509 0.0000000000
0.8496070802 0.3828183413 0.0000000000
0.8828107118 0.3789120317 0.0000000000
0.9160143435 0.3750057221 0.0000000000
0.9472648203 0.3710994125 0.0000000000
0.9794918746 0.3671931029 0.0000000000
0.9990234226 0.3632867933 0.0000000000
0.9990234226 0.3603570611 0.0000000000
0.9990234226 0.3564507515 0.0000000000
0.9990234226 0.3535210193 0.0000000000
0.9990234226 0.3505912871 0.0000000000
0.9990234226 0.3466849775 0.0000000000
0.9990234226 0.3437552453 0.0000000000
0.9990234226 0.3408255131 0.0000000000
0.0000000000 0.5195239185 0.0000000000
0.0517586023 0.5126878767 0.0000000000
0.1015640497 0.5058518349 0.0000000000
0.1494163424 0.4990310521 0.0000000000
0.1972686351 0.4921950103 0.0000000000
0.2431677729 0.4863355459 0.0000000000
0.2880903334 0.4794995041 0.0000000000
0.3320363165 0.4736400397 0.0000000000
0.3740291447 0.4677805753 0.0000000000
0.4160219730 0.4628976883 0.0000000000
0.4570382238 0.4570382238 0.0000000000
0.4970778973 0.4511787594 0.0000000000
0.5361257343 0.4462958724 0.0000000000
0.5742122530 0.4414129854 0.0000000000
0.6113221942 0.4365300984 0.0000000000
0.6484321355 0.4316472114 0.0000000000
0.6835889220 0.4277409018 0.0000000000
0.7187457084 0.4228580148 0.0000000000
0.7539024949 0.4189517052 0.0000000000
0.7871061265 0.4140688182 0.0000000000
0.8203097581 0.4101625086 0.0000000000
0.8525368124 0.4062561990 0.0000000000
0.8847638666 0.4023498894 0.0000000000
0.9160143435 0.3984435798 0.0000000000
0.9472648203 0.3945372702 0.0000000000
0.9775387198 0.3906309606 0.0000000000
0.9990234226 0.3877012284 0.0000000000
0.9990234226 0.3837949187 0.0000000000
0.9990234226 0.3798886091 0.0000000000
0.9990234226 0.3769588769 0.0000000000
0.9990234226 0.3740291447 0.0000000000
0.9990234226 0.3701228351 0.0000000000
0.9990234226 0.3671931029 0.0000000000
0.0000000000 0.5458915084 0.0000000000
0.0488288701 0.5390554665 0.0000000000
0.0966811627 0.5322194247 0.0000000000
0.1435568780 0.5253833829 0.0000000000
0.1884794385 0.5195239185 0.0000000000
0.2334019989 0.5126878767 0.0000000000
0.2763714046 0.5068284123 0.0000000000
0.3183642329 0.5009689479 0.0000000000
0.3603570611 0.4951247425 0.0000000000
0.4003967346 0.4892652781 0.0000000000
0.4404364080 0.4843823911 0.0000000000
0.4785229267 0.4785229267 0.0000000000
0.5165941863 0.4736400397 0.0000000000
0.5537041276 0.4687571527 0.0000000000
0.5898374914 0.4638742657 0.0000000000
0.6259708553 0.4589913787 0.0000000000
0.6611276417 0.4541084916 0.0000000000
0.6953078508 0.4502021820 0.0000000000
0.7294880598 0.4453192950 0.0000000000
0.7617151141 0.4414129854 0.0000000000
0.7949187457 0.4375066758 0.0000000000
0.8261692226 0.4326237888 0.0000000000
0.8574196994 0.4287174792 0.0000000000
0.8886701762 0.4248111696 0.0000000000
0.9189440757 0.4209048600 0.0000000000
0.9482413977 0.4169985504 0.0000000000
0.9775387198 0.4140688182 0.0000000000
0.9990234226 0.4101625086 0.0000000000
0.9990234226 0.4062561990 0.0000000000
0.9990234226 0.4033264668 0.0000000000
0.9990234226 0.3994201572 0.0000000000
0.9990234226 0.3964904250 0.0000000000
0.9990234226 0.3935606928 0.0000000000
0.0000000000 0.5703059434 0.0000000000
0.0468757153 0.5634699016 0.0000000000
0.0927748531 0.5566338598 0.0000000000
0.1376974136 0.5507743954 0.0000000000
0.1816433967 0.5439383536 0.0000000000
0.2236362249 0.5380788891 0.0000000000
0.2656290532 0.5312428473 0.0000000000
0.3066453040 0.5263599603 0.0000000000
0.3466849775 0.5205004959 0.0000000000
0.3857480735 0.5146410315 0.0000000000
0.4248111696 0.5087815671 0.0000000000
0.4619211109 0.5038986801 0.0000000000
0.4990310521 0.4990310521 0.0000000000
0.5351491569 0.4941481651 0.0000000000
0.5703059434 0.4892652781 0.0000000000
0.6054627298 0.4843823911 0.0000000000
0.6396429389 0.4794995041 0.0000000000
0.6728465705 0.4746166171 0.0000000000
0.7060502022 0.4707103075 0.0000000000
0.7382772564 0.4658274205 0.0000000000
0.7695277333 0.4619211109 0.0000000000
0.8007782101 0.4580148013 0.0000000000
0.8320286870 0.4541084916 0.0000000000
0.8623025864 0.4502021820 0.0000000000
0.8915999084 0.4462958724 0.0000000000
0.9208972305 0.4423895628 0.0000000000
0.9501945525 0.4384832532 0.0000000000
0.9775387198 0.4345769436 0.0000000000
0.9990234226 0.4306706340 0.0000000000
0.9990234226 0.4277409018 0.0000000000
0.9990234226 0.4238345922 0.0000000000
0.9990234226 0.4209048600 0.0000000000
0.9990234226 0.4179751278 0.0000000000
0.0000000000 0.5927672236 0.0000000000
0.0449225605 0.5859311818 0.0000000000
0.0888685435 0.5800717174 0.0000000000
0.1318379492 0.5732356756 0.0000000000
0.1748073548 0.5673762112 0.0000000000
0.2158236057 0.5605401694 0.0000000000
0.2558632792 0.5546807050 0.0000000000
0.2959029526 0.5488212406 0.0000000000
0.3339894713 0.5429617762 0.0000000000
0.3720759899 0.5380788891 0.0000000000
0.4101625086 0.5322194247 0.0000000000
0.4462958724 0.5273365377 0.0000000000
0.4824292363 0.5224536507 0.0000000000
0.5175707637 0.5175707637 0.0000000000
0.5517509728 0.5126878767 0.0000000000
0.5859311818 0.5078049897 0.0000000000
0.6191348135 0.5029221027 0.0000000000
0.6513618677 0.4980544747 0.0000000000
0.6845654994 0.4941481651 0.0000000000
0.7158159762 0.4892652781 0.0000000000
0.7470664530 0.4853589685 0.0000000000
0.7773403525 0.4814526589 0.0000000000
0.8076142519 0.4775463493 0.0000000000
0.8369115740 0.4726634623 0.0000000000
0.8662088960 0.4697337301 0.0000000000
0.8945296407 0.4648508431 0.0000000000
0.9228503853 0.4619211109 0.0000000000
0.9511711299 0.4580148013 0.0000000000
0.9785152972 0.4541084916 0.0000000000
0.9990234226 0.4511787594 0.0000000000
0.9990234226 0.4472724498 0.0000000000
0.9990234226 0.4433661402 0.0000000000
0.9990234226 0.4404364080 0.0000000000
0.0000000000 0.6142519265 0.0000000000
0.0429694057 0.6083924620 0.0000000000
0.0859388113 0.6015564202 0.0000000000
0.1279316396 0.5956969558 0.0000000000
0.1679713130 0.5888609140 0.0000000000
0.2080109865 0.5830014496 0.0000000000
0.2470740826 0.5771419852 0.0000000000
0.2861371786 0.5712825208 0.0000000000
0.3232471199 0.5663996338 0.0000000000
0.3603570611 0.5605401694 0.0000000000
0.3964904250 0.5556572824 0.0000000000
0.4326237888 0.5497978180 0.0000000000
0.4668039979 0.5449149310 0.0000000000
0.5019455253 0.5400320439 0.0000000000
0.5351491569 0.5351491569 0.0000000000
0.5683527886 0.5302662699 0.0000000000
0.6005798428 0.5253833829 0.0000000000
0.6328068971 0.5214770733 0.0000000000
0.6640573739 0.5165941863 0.0000000000
0.6953078508 0.5126878767 0.0000000000
0.7255817502 0.5078049897 0.0000000000
0.7558556497 0.5038986801 0.0000000000
0.7851529717 0.5000076295 0.0000000000
0.8144502937 0.4961013199 0.0000000000
0.8427710384 0.4921950103 0.0000000000
0.8710917830 0.4882887007 0.0000000000
0.8994125277 0.4843823911 0.0000000000
0.9257801175 0.4804760815 0.0000000000
0.9531242847 0.4765697719 0.0000000000
0.9794918746 0.4726634623 0.0000000000
0.9990234226 0.4697337301 0.0000000000
0.9990234226 0.4658274205 0.0000000000
0.9990234226 0.4628976883 0.0000000000
0.0000000000 0.6357366293 0.0000000000
0.0419928283 0.6289005875 0.0000000000
0.0830090791 0.6230411231 0.0000000000
0.1230487526 0.6162050813 0.0000000000
0.1630884260 0.6103456168 0.0000000000
0.2011749447 0.6044861524 0.0000000000
0.2392614633 0.5986266880 0.0000000000
0.2773479820 0.5937438010 0.0000000000
0.3134813458 0.5878843366 0.0000000000
0.3496147097 0.5820248722 0.0000000000
0.3847714961 0.5771419852 0.0000000000
0.4189517052 0.5722590982 0.0000000000
0.4531319142 0.5663996338 0.0000000000
0.4873121233 0.5615167468 0.0000000000
0.5195239185 0.5566338598 0.0000000000
0.5527275502 0.5527275502 0.0000000000
0.5839780270 0.5478446632 0.0000000000
0.6152285039 0.5429617762 0.0000000000
0.6464789807 0.5390554665 0.0000000000
0.6767528801 0.5341725795 0.0000000000
0.7060502022 0.5302662699 0.0000000000
0.7363241016 0.5253833829 0.0000000000
0.7646448463 0.5214770733 0.0000000000
0.7929655909 0.5175707637 0.0000000000
0.8212863355 0.5136644541 0.0000000000
0.8486305028 0.5097581445 0.0000000000
0.8769512474 0.5058518349 0.0000000000
0.9033188373 0.5019455253 0.0000000000
0.9296864271 0.4980544747 0.0000000000
0.9560540169 0.4941481651 0.0000000000
0.9814450294 0.4912184329 0.0000000000
0.9990234226 0.4873121233 0.0000000000
0.9990234226 0.4843823911 0.0000000000
0.0000000000 0.6542915999 0.0000000000
0.0410162509 0.6484321355 0.0000000000
0.0800793469 0.6425726711 0.0000000000
0.1191424430 0.6367132067 0.0000000000
0.1572289616 0.6308537423 0.0000000000
0.1953154803 0.6249942779 0.0000000000
0.2324254215 0.6191348135 0.0000000000
0.2685587854 0.6132753491 0.0000000000
0.3037155718 0.6074158846 0.0000000000
0.3388723583 0.6025329976 0.0000000000
0.3730525673 0.5976501106 0.0000000000
0.4072327764 0.5917906462 0.0000000000
0.4404364080 0.5869077592 0.0000000000
0.4726634623 0.5820248722 0.0000000000
0.5048752575 0.5771419852 0.0000000000
0.5371023117 0.5722590982 0.0000000000
0.5673762112 0.5673762112 0.0000000000
0.5986266880 0.5634699016 0.0000000000
0.6289005875 0.5585870146 0.0000000000
0.6581979095 0.5546807050 0.0000000000
0.6874952316 0.5497978180 0.0000000000
0.7167925536 0.5458915084 0.0000000000
0.7451132982 0.5419851987 0.0000000000
0.7734340429 0.5380788891 0.0000000000
0.8007782101 0.5341725795 0.0000000000
0.8281223774 0.5292896925 0.0000000000
0.8544899672 0.5263599603 0.0000000000
0.8808575570 0.5224536507 0.0000000000
0.9072251469 0.5185473411 0.0000000000
0.9326161593 0.5146410315 0.0000000000
0.9580071717 0.5107347219 0.0000000000
0.9833981842 0.5078049897 0.0000000000
0.9990234226 0.5038986801 0.0000000000
0.0000000000 0.6738231479 0.0000000000
0.0390630961 0.6679636835 0.0000000000
0.0781261921 0.6621042191 0.0000000000
0.1162127108 0.6562447547 0.0000000000
0.1533226520 0.6503852903 0.0000000000
0.1894560159 0.6445258259 0.0000000000
0.2255893797 0.6386663615 0.0000000000
0.2607461662 0.6328068971 0.0000000000
0.2949263752 0.6279240101 0.0000000000
0.3291065843 0.6220645457 0.0000000000
0.3632867933 0.6171816587 0.0000000000
0.3955138476 0.6122987716 0.0000000000
0.4287174792 0.6064393072 0.0000000000
0.4599679561 0.6025329976 0.0000000000
0.4921950103 0.5966735332 0.0000000000
0.5224536507 0.5927672236 0.0000000000
0.5537041276 0.5878843366 0.0000000000
0.5830014496 0.5830014496 0.0000000000
0.6132753491 0.5790951400 0.0000000000
0.6415960937 0.5742122530 0.0000000000
0.6708934157 0.5703059434 0.0000000000
0.6992141604 0.5663996338 0.0000000000
0.7265583276 0.5615167468 0.0000000000
0.7548790723 0.5576104372 0.0000000000
0.7812466621 0.5537041276 0.0000000000
0.8085908293 0.5497978180 0.0000000000
0.8349584192 0.5458915084 0.0000000000
0.8603494316 0.5419851987 0.0000000000
0.8867170214 0.5380788891 0.0000000000
0.9121080339 0.5341725795 0.0000000000
0.9365224689 0.5312428473 0.0000000000
0.9638666361 0.5273365377 0.0000000000
0.9912108034 0.5234302281 0.0000000000
0.0000000000 0.6914015412 0.0000000000
0.0380865187 0.6855420768 0.0000000000
0.0751964599 0.6796826123 0.0000000000
0.1123064012 0.6738231479 0.0000000000
0.1484397650 0.6679636835 0.0000000000
0.1835965515 0.6621042191 0.0000000000
0.2187533379 0.6562447547 0.0000000000
0.2529335470 0.6513618677 0.0000000000
0.2871137560 0.6455024033 0.0000000000
0.3203173877 0.6406195163 0.0000000000
0.3535210193 0.6357366293 0.0000000000
0.3847714961 0.6298771649 0.0000000000
0.4169985504 0.6249942779 0.0000000000
0.4482490272 0.6201113909 0.0000000000
0.4785229267 0.6152285039 0.0000000000
0.5087815671 0.6113221942 0.0000000000
0.5390554665 0.6064393072 0.0000000000
0.5683527886 0.6015564202 0.0000000000
0.5976501106 0.5976501106 0.0000000000
0.6259708553 0.5927672236 0.0000000000
0.6542915999 0.5888609140 0.0000000000
