SHADOW SAT.cube
LUT_3D_SIZE 33
0.0195315480 0.0195315480 0.0195315480
0.1445334554 0.0195315480 0.0195315480
0.2646524758 0.0146486610 0.0146486610
0.3808651865 0.0068360418 0.0068360418
0.4853589685 0.0000000000 0.0000000000
0.5624933242 0.0000000000 0.0000000000
0.6337834745 0.0000000000 0.0000000000
0.7001907378 0.0000000000 0.0000000000
0.7617151141 0.0000000000 0.0000000000
0.8203097581 0.0000000000 0.0000000000
0.8759746700 0.0000000000 0.0000000000
0.9287098497 0.0000000000 0.0000000000
0.9794918746 0.0000000000 0.0000000000
0.9990234226 0.0000000000 0.0000000000
0.9990234226 0.0000000000 0.0000000000
0.9990234226 0.0000000000 0.0000000000
0.9990234226 0.0000000000 0.0000000000
0.9990234226 0.0000000000 0.0000000000
0.9990234226 0.0000000000 0.0000000000
0.9990234226 0.0000000000 0.0000000000
0.9990234226 0.0000000000 0.0000000000
0.9990234226 0.0000000000 0.0000000000
0.9990234226 0.0000000000 0.0000000000
0.9990234226 0.0000000000 0.0000000000
0.9990234226 0.0000000000 0.0000000000
0.9990234226 0.0000000000 0.0000000000
0.9990234226 0.0000000000 0.0000000000
0.9990234226 0.0000000000 0.0000000000
0.9990234226 0.0000000000 0.0000000000
0.9990234226 0.0000000000 0.0000000000
0.9990234226 0.0000000000 0.0000000000
0.9990234226 0.0000000000 0.0000000000
0.9990234226 0.0000000000 0.0000000000
0.0097657740 0.1347676814 0.0097657740
0.1259784848 0.1259784848 0.0009765774
0.2334019989 0.1162127108 0.0000000000
0.3261768521 0.1084000916 0.0000000000
0.4111390860 0.1025406271 0.0000000000
0.4873121233 0.0976577401 0.0000000000
0.5585870146 0.0927748531 0.0000000000
0.6259708553 0.0898451209 0.0000000000
0.6874952316 0.0859388113 0.0000000000
0.7470664530 0.0830090791 0.0000000000
0.8037079423 0.0800793469 0.0000000000
0.8574196994 0.0781261921 0.0000000000
0.9091783017 0.0761730373 0.0000000000
0.9599603265 0.0742198825 0.0000000000
0.9990234226 0.0722667277 0.0000000000
0.9990234226 0.0703135729 0.0000000000
0.9990234226 0.0683604181 0.0000000000
0.9990234226 0.0673838407 0.0000000000
0.9990234226 0.0664072633 0.0000000000
0.9990234226 0.0644541085 0.0000000000
0.9990234226 0.0634775311 0.0000000000
0.9990234226 0.0625009537 0.0000000000
0.9990234226 0.0615243763 0.0000000000
0.9990234226 0.0605477989 0.0000000000
0.9990234226 0.0595712215 0.0000000000
0.9990234226 0.0585946441 0.0000000000
0.9990234226 0.0576180667 0.0000000000
0.9990234226 0.0566414893 0.0000000000
0.9990234226 0.0556649119 0.0000000000
0.9990234226 0.0546883345 0.0000000000
0.9990234226 0.0546883345 0.0000000000
0.9990234226 0.0537117571 0.0000000000
0.9990234226 0.0527351797 0.0000000000
0.0000000000 0.2128938735 0.0000000000
0.1005874723 0.2021515221 0.0000000000
0.1923857481 0.1923857481 0.0000000000
0.2753948272 0.1835965515 0.0000000000
0.3535210193 0.1767605097 0.0000000000
0.4248111696 0.1699244678 0.0000000000
0.4931715877 0.1640650034 0.0000000000
0.5576104372 0.1591821164 0.0000000000
0.6181582361 0.1542992294 0.0000000000
0.6767528801 0.1503929198 0.0000000000
0.7324177920 0.1464866102 0.0000000000
0.7861295491 0.1425803006 0.0000000000
0.8369115740 0.1396505684 0.0000000000
0.8876935988 0.1367208362 0.0000000000
0.9355458915 0.1337911040 0.0000000000
0.9824216068 0.1308613718 0.0000000000
0.9990234226 0.1289082170 0.0000000000
0.9990234226 0.1259784848 0.0000000000
0.9990234226 0.1240253300 0.0000000000
0.9990234226 0.1220721752 0.0000000000
0.9990234226 0.1201190204 0.0000000000
0.9990234226 0.1181658656 0.0000000000
0.9990234226 0.1162127108 0.0000000000
0.9990234226 0.1142595560 0.0000000000
0.9990234226 0.1132829786 0.0000000000
0.9990234226 0.1113298238 0.0000000000
0.9990234226 0.1103532464 0.0000000000
0.9990234226 0.1084000916 0.0000000000
0.9990234226 0.1074235142 0.0000000000
0.9990234226 0.1054703593 0.0000000000
0.9990234226 0.1044937819 0.0000000000
0.9990234226 0.1035172045 0.0000000000
0.9990234226 0.1025406271 0.0000000000
0.0000000000 0.2705119402 0.0000000000
0.0869153887 0.2607461662 0.0000000000
0.1679713130 0.2519569696 0.0000000000
0.2431677729 0.2431677729 0.0000000000
0.3154345006 0.2363317311 0.0000000000
0.3828183413 0.2294956893 0.0000000000
0.4462958724 0.2236362249 0.0000000000
0.5078049897 0.2177767605 0.0000000000
0.5663996338 0.2128938735 0.0000000000
0.6230411231 0.2080109865 0.0000000000
0.6777294575 0.2031280995 0.0000000000
0.7294880598 0.1992217899 0.0000000000
0.7802700847 0.1953154803 0.0000000000
0.8300755322 0.1914091707 0.0000000000
0.8769512474 0.1875028611 0.0000000000
0.9238269627 0.1845731289 0.0000000000
0.9687495232 0.1816433967 0.0000000000
0.9990234226 0.1787136645 0.0000000000
0.9990234226 0.1757839322 0.0000000000
0.9990234226 0.1738307774 0.0000000000
0.9990234226 0.1709010452 0.0000000000
0.9990234226 0.1689478904 0.0000000000
0.9990234226 0.1660181582 0.0000000000
0.9990234226 0.1640650034 0.0000000000
0.9990234226 0.1621118486 0.0000000000
0.9990234226 0.1601586938 0.0000000000
0.9990234226 0.1582055390 0.0000000000
0.9990234226 0.1562523842 0.0000000000
0.9990234226 0.1542992294 0.0000000000
0.9990234226 0.1523460746 0.0000000000
0.9990234226 0.1513694972 0.0000000000
0.9990234226 0.1494163424 0.0000000000
0.9990234226 0.1484397650 0.0000000000
0.0000000000 0.3203173877 0.0000000000
0.0781261921 0.3115281910 0.0000000000
0.1513694972 0.3027389944 0.0000000000
0.2207064927 0.2949263752 0.0000000000
0.2871137560 0.2871137560 0.0000000000
0.3505912871 0.2802777142 0.0000000000
0.4111390860 0.2744182498 0.0000000000
0.4707103075 0.2685587854 0.0000000000
0.5263599603 0.2626993210 0.0000000000
0.5810482948 0.2578164340 0.0000000000
0.6337834745 0.2539101244 0.0000000000
0.6845654994 0.2490272374 0.0000000000
0.7333943694 0.2441443503 0.0000000000
0.7822232395 0.2402380407 0.0000000000
0.8290989548 0.2363317311 0.0000000000
0.8749980926 0.2334019989 0.0000000000
0.9189440757 0.2294956893 0.0000000000
0.9628900587 0.2265659571 0.0000000000
0.9990234226 0.2236362249 0.0000000000
0.9990234226 0.2207064927 0.0000000000
0.9990234226 0.2177767605 0.0000000000
0.9990234226 0.2148470283 0.0000000000
0.9990234226 0.2119172961 0.0000000000
0.9990234226 0.2099641413 0.0000000000
0.9990234226 0.2070344091 0.0000000000
0.9990234226 0.2050812543 0.0000000000
0.9990234226 0.2031280995 0.0000000000
0.9990234226 0.2001983673 0.0000000000
0.9990234226 0.1982452125 0.0000000000
0.9990234226 0.1962920577 0.0000000000
0.9990234226 0.1943389029 0.0000000000
0.9990234226 0.1923857481 0.0000000000
0.9990234226 0.1914091707 0.0000000000
0.0000000000 0.3642633707 0.0000000000
0.0712901503 0.3564507515 0.0000000000
0.1396505684 0.3476615549 0.0000000000
0.2041046769 0.3408255131 0.0000000000
0.2666056306 0.3330128939 0.0000000000
0.3271534295 0.3271534295 0.0000000000
0.3847714961 0.3203173877 0.0000000000
0.4404364080 0.3144579232 0.0000000000
0.4951247425 0.3095750362 0.0000000000
0.5468680858 0.3037155718 0.0000000000
0.5986266880 0.2988326848 0.0000000000
0.6474555581 0.2939497978 0.0000000000
0.6962844282 0.2900434882 0.0000000000
0.7431601434 0.2861371786 0.0000000000
0.7890592813 0.2812542916 0.0000000000
0.8339818418 0.2783245594 0.0000000000
0.8769512474 0.2744182498 0.0000000000
0.9199206531 0.2705119402 0.0000000000
0.9628900587 0.2675822080 0.0000000000
0.9990234226 0.2636758984 0.0000000000
0.9990234226 0.2607461662 0.0000000000
0.9990234226 0.2578164340 0.0000000000
0.9990234226 0.2548867018 0.0000000000
0.9990234226 0.2519569696 0.0000000000
0.9990234226 0.2500038148 0.0000000000
0.9990234226 0.2470740826 0.0000000000
0.9990234226 0.2451209277 0.0000000000
0.9990234226 0.2421911955 0.0000000000
0.9990234226 0.2402380407 0.0000000000
0.9990234226 0.2373083085 0.0000000000
0.9990234226 0.2353551537 0.0000000000
0.9990234226 0.2334019989 0.0000000000
0.9990234226 0.2314488441 0.0000000000
0.0000000000 0.4052796216 0.0000000000
0.0664072633 0.3974670024 0.0000000000
0.1298847944 0.3896543832 0.0000000000
0.1914091707 0.3828183413 0.0000000000
0.2509803922 0.3759822995 0.0000000000
0.3076218814 0.3691462577 0.0000000000
0.3632867933 0.3632867933 0.0000000000
0.4169985504 0.3574273289 0.0000000000
0.4687571527 0.3515678645 0.0000000000
0.5195239185 0.3466849775 0.0000000000
0.5693293660 0.3418020905 0.0000000000
0.6171816587 0.3369192035 0.0000000000
0.6640573739 0.3320363165 0.0000000000
0.7099565118 0.3281300069 0.0000000000
0.7548790723 0.3232471199 0.0000000000
0.7988250553 0.3193408103 0.0000000000
0.8417944610 0.3154345006 0.0000000000
0.8837872892 0.3125047684 0.0000000000
0.9257801175 0.3085984588 0.0000000000
0.9658197910 0.3046921492 0.0000000000
0.9990234226 0.3017624170 0.0000000000
0.9990234226 0.2988326848 0.0000000000
0.9990234226 0.2959029526 0.0000000000
0.9990234226 0.2929732204 0.0000000000
0.9990234226 0.2900434882 0.0000000000
0.9990234226 0.2871137560 0.0000000000
0.9990234226 0.2841840238 0.0000000000
0.9990234226 0.2822308690 0.0000000000
0.9990234226 0.2793011368 0.0000000000
0.9990234226 0.2773479820 0.0000000000
0.9990234226 0.2744182498 0.0000000000
0.9990234226 0.2724650950 0.0000000000
0.9990234226 0.2705119402 0.0000000000
0.0000000000 0.4423895628 0.0000000000
0.0625009537 0.4355535210 0.0000000000
0.1220721752 0.4277409018 0.0000000000
0.1806668193 0.4209048600 0.0000000000
0.2363317311 0.4140688182 0.0000000000
0.2910200656 0.4082093538 0.0000000000
0.3447318227 0.4023498894 0.0000000000
0.3964904250 0.3964904250 0.0000000000
0.4462958724 0.3906309606 0.0000000000
0.4961013199 0.3857480735 0.0000000000
0.5439383536 0.3808651865 0.0000000000
0.5908140688 0.3759822995 0.0000000000
0.6367132067 0.3710994125 0.0000000000
0.6816357671 0.3671931029 0.0000000000
0.7246051728 0.3623102159 0.0000000000
0.7685511559 0.3584039063 0.0000000000
0.8105439841 0.3544975967 0.0000000000
0.8515602350 0.3505912871 0.0000000000
0.8925764858 0.3476615549 0.0000000000
0.9326161593 0.3437552453 0.0000000000
0.9726558328 0.3398489357 0.0000000000
0.9990234226 0.3369192035 0.0000000000
0.9990234226 0.3339894713 0.0000000000
0.9990234226 0.3310597391 0.0000000000
0.9990234226 0.3281300069 0.0000000000
0.9990234226 0.3252002747 0.0000000000
0.9990234226 0.3222705425 0.0000000000
0.9990234226 0.3193408103 0.0000000000
0.9990234226 0.3164110780 0.0000000000
0.9990234226 0.3144579232 0.0000000000
0.9990234226 0.3115281910 0.0000000000
0.9990234226 0.3095750362 0.0000000000
0.9990234226 0.3076218814 0.0000000000
0.0000000000 0.4775463493 0.0000000000
0.0585946441 0.4707103075 0.0000000000
0.1162127108 0.4638742657 0.0000000000
0.1709010452 0.4570382238 0.0000000000
0.2255893797 0.4511787594 0.0000000000
0.2773479820 0.4443427176 0.0000000000
0.3291065843 0.4384832532 0.0000000000
0.3789120317 0.4326237888 0.0000000000
0.4277409018 0.4277409018 0.0000000000
0.4755931945 0.4228580148 0.0000000000
0.5214770733 0.4179751278 0.0000000000
0.5673762112 0.4130922408 0.0000000000
0.6122987716 0.4082093538 0.0000000000
0.6562447547 0.4033264668 0.0000000000
0.6992141604 0.3994201572 0.0000000000
0.7412069886 0.3955138476 0.0000000000
0.7822232395 0.3916075380 0.0000000000
0.8232394903 0.3877012284 0.0000000000
0.8632791638 0.3837949187 0.0000000000
0.9033188373 0.3798886091 0.0000000000
0.9423819333 0.3769588769 0.0000000000
0.9804684520 0.3730525673 0.0000000000
0.9990234226 0.3701228351 0.0000000000
0.9990234226 0.3671931029 0.0000000000
0.9990234226 0.3642633707 0.0000000000
0.9990234226 0.3613336385 0.0000000000
0.9990234226 0.3584039063 0.0000000000
0.9990234226 0.3554741741 0.0000000000
0.9990234226 0.3525444419 0.0000000000
0.9990234226 0.3496147097 0.0000000000
0.9990234226 0.3476615549 0.0000000000
0.9990234226 0.3447318227 0.0000000000
0.9990234226 0.3427786679 0.0000000000
0.0000000000 0.5107347219 0.0000000000
0.0556649119 0.5048752575 0.0000000000
0.1103532464 0.4980544747 0.0000000000
0.1640650034 0.4912184329 0.0000000000
0.2158236057 0.4853589685 0.0000000000
0.2656290532 0.4785229267 0.0000000000
0.3154345006 0.4736400397 0.0000000000
0.3642633707 0.4677805753 0.0000000000
0.4111390860 0.4628976883 0.0000000000
0.4570382238 0.4570382238 0.0000000000
0.5029221027 0.4521553368 0.0000000000
0.5468680858 0.4472724498 0.0000000000
0.5908140688 0.4433661402 0.0000000000
0.6337834745 0.4384832532 0.0000000000
0.6757763027 0.4345769436 0.0000000000
0.7177691310 0.4306706340 0.0000000000
0.7578088045 0.4267643244 0.0000000000
0.7978484779 0.4228580148 0.0000000000
0.8378881514 0.4189517052 0.0000000000
0.8759746700 0.4150453956 0.0000000000
0.9150377661 0.4121156634 0.0000000000
0.9531242847 0.4082093538 0.0000000000
0.9902342260 0.4052796216 0.0000000000
0.9990234226 0.4013733120 0.0000000000
0.9990234226 0.3984435798 0.0000000000
0.9990234226 0.3955138476 0.0000000000
0.9990234226 0.3925841154 0.0000000000
0.9990234226 0.3896543832 0.0000000000
0.9990234226 0.3867246509 0.0000000000
0.9990234226 0.3847714961 0.0000000000
0.9990234226 0.3818417639 0.0000000000
0.9990234226 0.3789120317 0.0000000000
0.9990234226 0.3769588769 0.0000000000
0.0000000000 0.5419851987 0.0000000000
0.0537117571 0.5351491569 0.0000000000
0.1054703593 0.5292896925 0.0000000000
0.1572289616 0.5224536507 0.0000000000
0.2070344091 0.5165941863 0.0000000000
0.2558632792 0.5107347219 0.0000000000
0.3037155718 0.5058518349 0.0000000000
0.3505912871 0.5000076295 0.0000000000
0.3964904250 0.4951247425 0.0000000000
0.4414129854 0.4902418555 0.0000000000
0.4853589685 0.4853589685 0.0000000000
0.5283131151 0.4804760815 0.0000000000
0.5712825208 0.4755931945 0.0000000000
0.6132753491 0.4716868849 0.0000000000
0.6542915999 0.4677805753 0.0000000000
0.6953078508 0.4638742657 0.0000000000
0.7353475242 0.4589913787 0.0000000000
0.7744106203 0.4560616464 0.0000000000
0.8134737163 0.4521553368 0.0000000000
0.8515602350 0.4482490272 0.0000000000
0.8896467536 0.4443427176 0.0000000000
0.9267566949 0.4414129854 0.0000000000
0.9638666361 0.4384832532 0.0000000000
0.9990234226 0.4345769436 0.0000000000
0.9990234226 0.4316472114 0.0000000000
0.9990234226 0.4287174792 0.0000000000
0.9990234226 0.4257877470 0.0000000000
0.9990234226 0.4228580148 0.0000000000
0.9990234226 0.4199282826 0.0000000000
0.9990234226 0.4169985504 0.0000000000
0.9990234226 0.4140688182 0.0000000000
0.9990234226 0.4121156634 0.0000000000
0.9990234226 0.4091859312 0.0000000000
0.0000000000 0.5732356756 0.0000000000
0.0517586023 0.5663996338 0.0000000000
0.1015640497 0.5605401694 0.0000000000
0.1513694972 0.5546807050 0.0000000000
0.1992217899 0.5488212406 0.0000000000
0.2470740826 0.5429617762 0.0000000000
0.2929732204 0.5371023117 0.0000000000
0.3388723583 0.5322194247 0.0000000000
0.3837949187 0.5273365377 0.0000000000
0.4277409018 0.5224536507 0.0000000000
0.4707103075 0.5175707637 0.0000000000
0.5126878767 0.5126878767 0.0000000000
0.5546807050 0.5087815671 0.0000000000
0.5956969558 0.5038986801 0.0000000000
0.6367132067 0.5000076295 0.0000000000
0.6767528801 0.4961013199 0.0000000000
0.7158159762 0.4921950103 0.0000000000
0.7539024949 0.4882887007 0.0000000000
0.7929655909 0.4843823911 0.0000000000
0.8300755322 0.4804760815 0.0000000000
0.8681620508 0.4775463493 0.0000000000
0.9042954147 0.4736400397 0.0000000000
0.9414053559 0.4707103075 0.0000000000
0.9765621424 0.4668039979 0.0000000000
0.9990234226 0.4638742657 0.0000000000
0.9990234226 0.4609445335 0.0000000000
0.9990234226 0.4580148013 0.0000000000
0.9990234226 0.4550850690 0.0000000000
0.9990234226 0.4521553368 0.0000000000
0.9990234226 0.4492256046 0.0000000000
0.9990234226 0.4472724498 0.0000000000
0.9990234226 0.4443427176 0.0000000000
0.9990234226 0.4414129854 0.0000000000
0.0000000000 0.6015564202 0.0000000000
0.0498054475 0.5956969558 0.0000000000
0.0986343175 0.5898374914 0.0000000000
0.1464866102 0.5839780270 0.0000000000
0.1923857481 0.5781185626 0.0000000000
0.2382848859 0.5732356756 0.0000000000
0.2841840238 0.5673762112 0.0000000000
0.3281300069 0.5624933242 0.0000000000
0.3720759899 0.5576104372 0.0000000000
0.4150453956 0.5527275502 0.0000000000
0.4570382238 0.5478446632 0.0000000000
0.4980544747 0.5439383536 0.0000000000
0.5390554665 0.5390554665 0.0000000000
0.5800717174 0.5351491569 0.0000000000
0.6191348135 0.5312428473 0.0000000000
0.6591744869 0.5273365377 0.0000000000
0.6972610056 0.5234302281 0.0000000000
0.7353475242 0.5195239185 0.0000000000
0.7734340429 0.5156176089 0.0000000000
0.8105439841 0.5117112993 0.0000000000
0.8476539254 0.5087815671 0.0000000000
0.8837872892 0.5048752575 0.0000000000
0.9199206531 0.5019455253 0.0000000000
0.9550774395 0.4980544747 0.0000000000
0.9902342260 0.4951247425 0.0000000000
0.9990234226 0.4921950103 0.0000000000
0.9990234226 0.4892652781 0.0000000000
0.9990234226 0.4863355459 0.0000000000
0.9990234226 0.4834058137 0.0000000000
0.9990234226 0.4804760815 0.0000000000
0.9990234226 0.4775463493 0.0000000000
0.9990234226 0.4755931945 0.0000000000
0.9990234226 0.4726634623 0.0000000000
0.0000000000 0.6298771649 0.0000000000
0.0478522927 0.6240177005 0.0000000000
0.0947280079 0.6181582361 0.0000000000
0.1416037232 0.6122987716 0.0000000000
0.1865262837 0.6074158846 0.0000000000
0.2314488441 0.6015564202 0.0000000000
0.2753948272 0.5966735332 0.0000000000
0.3183642329 0.5917906462 0.0000000000
0.3613336385 0.5869077592 0.0000000000
0.4033264668 0.5820248722 0.0000000000
0.4443427176 0.5781185626 0.0000000000
0.4853589685 0.5732356756 0.0000000000
0.5253833829 0.5693293660 0.0000000000
0.5644464790 0.5644464790 0.0000000000
0.6035095750 0.5605401694 0.0000000000
0.6425726711 0.5566338598 0.0000000000
0.6806591897 0.5527275502 0.0000000000
0.7177691310 0.5488212406 0.0000000000
0.7558556497 0.5458915084 0.0000000000
0.7919890135 0.5419851987 0.0000000000
0.8281223774 0.5380788891 0.0000000000
0.8642557412 0.5351491569 0.0000000000
0.9003891051 0.5322194247 0.0000000000
0.9355458915 0.5283131151 0.0000000000
0.9697261006 0.5253833829 0.0000000000
0.9990234226 0.5224536507 0.0000000000
0.9990234226 0.5195239185 0.0000000000
0.9990234226 0.5165941863 0.0000000000
0.9990234226 0.5136644541 0.0000000000
0.9990234226 0.5107347219 0.0000000000
0.9990234226 0.5078049897 0.0000000000
0.9990234226 0.5058518349 0.0000000000
0.9990234226 0.5029221027 0.0000000000
0.0000000000 0.6572213321 0.0000000000
0.0468757153 0.6523384451 0.0000000000
0.0927748531 0.6464789807 0.0000000000
0.1376974136 0.6406195163 0.0000000000
0.1816433967 0.6357366293 0.0000000000
0.2255893797 0.6298771649 0.0000000000
0.2675822080 0.6249942779 0.0000000000
0.3105516136 0.6201113909 0.0000000000
0.3515678645 0.6162050813 0.0000000000
0.3925841154 0.6113221942 0.0000000000
0.4336003662 0.6064393072 0.0000000000
0.4736400397 0.6025329976 0.0000000000
0.5126878767 0.5976501106 0.0000000000
0.5517509728 0.5937438010 0.0000000000
0.5898374914 0.5898374914 0.0000000000
0.6279240101 0.5859311818 0.0000000000
0.6650339513 0.5820248722 0.0000000000
0.7021438926 0.5790951400 0.0000000000
0.7392538338 0.5751888304 0.0000000000
0.7753871977 0.5712825208 0.0000000000
0.8115205615 0.5683527886 0.0000000000
0.8466773480 0.5644464790 0.0000000000
0.8818341344 0.5615167468 0.0000000000
0.9169909209 0.5585870146 0.0000000000
0.9521477073 0.5556572824 0.0000000000
0.9863279164 0.5517509728 0.0000000000
0.9990234226 0.5488212406 0.0000000000
0.9990234226 0.5458915084 0.0000000000
0.9990234226 0.5429617762 0.0000000000
0.9990234226 0.5410086213 0.0000000000
0.9990234226 0.5380788891 0.0000000000
0.9990234226 0.5351491569 0.0000000000
0.9990234226 0.5331960021 0.0000000000
0.0000000000 0.6845654994 0.0000000000
0.0449225605 0.6787060349 0.0000000000
0.0898451209 0.6738231479 0.0000000000
0.1337911040 0.6679636835 0.0000000000
0.1767605097 0.6630807965 0.0000000000
0.2197299153 0.6581979095 0.0000000000
0.2617227436 0.6533150225 0.0000000000
0.3027389944 0.6484321355 0.0000000000
0.3437552453 0.6435492485 0.0000000000
0.3837949187 0.6396429389 0.0000000000
0.4238345922 0.6357366293 0.0000000000
0.4628976883 0.6308537423 0.0000000000
0.5009689479 0.6269474327 0.0000000000
0.5400320439 0.6230411231 0.0000000000
0.5771419852 0.6191348135 0.0000000000
0.6152285039 0.6152285039 0.0000000000
0.6523384451 0.6113221942 0.0000000000
0.6884718090 0.6074158846 0.0000000000
0.7246051728 0.6044861524 0.0000000000
0.7607385367 0.6005798428 0.0000000000
0.7958953231 0.5976501106 0.0000000000
0.8310521096 0.5937438010 0.0000000000
0.8662088960 0.5908140688 0.0000000000
0.9003891051 0.5878843366 0.0000000000
0.9345693141 0.5839780270 0.0000000000
0.9687495232 0.5810482948 0.0000000000
0.9990234226 0.5781185626 0.0000000000
0.9990234226 0.5751888304 0.0000000000
0.9990234226 0.5722590982 0.0000000000
0.9990234226 0.5703059434 0.0000000000
0.9990234226 0.5673762112 0.0000000000
0.9990234226 0.5644464790 0.0000000000
0.9990234226 0.5624933242 0.0000000000
0.0000000000 0.7099565118 0.0000000000
0.0439459831 0.7050736248 0.0000000000
0.0878919661 0.7001907378 0.0000000000
0.1298847944 0.6953078508 0.0000000000
0.1728542000 0.6904249638 0.0000000000
0.2138704509 0.6845654994 0.0000000000
0.2548867018 0.6806591897 0.0000000000
0.2959029526 0.6757763027 0.0000000000
0.3359426261 0.6708934157 0.0000000000
0.3750057221 0.6669871061 0.0000000000
0.4140688182 0.6630807965 0.0000000000
0.4531319142 0.6581979095 0.0000000000
0.4912184329 0.6542915999 0.0000000000
0.5283131151 0.6503852903 0.0000000000
0.5654230564 0.6464789807 0.0000000000
0.6025329976 0.6425726711 0.0000000000
0.6386663615 0.6386663615 0.0000000000
0.6747997253 0.6357366293 0.0000000000
0.7109330892 0.6318303197 0.0000000000
0.7460898756 0.6289005875 0.0000000000
0.7812466621 0.6249942779 0.0000000000
0.8164034485 0.6220645457 0.0000000000
0.8505836576 0.6191348135 0.0000000000
0.8847638666 0.6152285039 0.0000000000
0.9189440757 0.6122987716 0.0000000000
0.9521477073 0.6093690394 0.0000000000
0.9863279164 0.6064393072 0.0000000000
0.9990234226 0.6035095750 0.0000000000
0.9990234226 0.6005798428 0.0000000000
0.9990234226 0.5986266880 0.0000000000
0.9990234226 0.5956969558 0.0000000000
0.9990234226 0.5927672236 0.0000000000
0.9990234226 0.5908140688 0.0000000000
0.0000000000 0.7363241016 0.0000000000
0.0429694057 0.7314412146 0.0000000000
0.0859388113 0.7265583276 0.0000000000
0.1269550622 0.7216754406 0.0000000000
0.1689478904 0.7167925536 0.0000000000
0.2089875639 0.7119096666 0.0000000000
0.2500038148 0.7070267796 0.0000000000
0.2890669108 0.7031204700 0.0000000000
0.3291065843 0.6982375830 0.0000000000
0.3671931029 0.6943312734 0.0000000000
0.4062561990 0.6904249638 0.0000000000
0.4433661402 0.6855420768 0.0000000000
0.4814526589 0.6816357671 0.0000000000
0.5185473411 0.6777294575 0.0000000000
0.5556572824 0.6738231479 0.0000000000
0.5917906462 0.6708934157 0.0000000000
0.6279240101 0.6669871061 0.0000000000
0.6630807965 0.6630807965 0.0000000000
0.6992141604 0.6601510643 0.0000000000
0.7333943694 0.6562447547 0.0000000000
0.7685511559 0.6533150225 0.0000000000
0.8027313649 0.6503852903 0.0000000000
0.8369115740 0.6464789807 0.0000000000
0.8710917830 0.6435492485 0.0000000000
0.9042954147 0.6406195163 0.0000000000
0.9374990463 0.6376897841 0.0000000000
0.9707026780 0.6347600519 0.0000000000
0.9990234226 0.6318303197 0.0000000000
0.9990234226 0.6289005875 0.0000000000
0.9990234226 0.6269474327 0.0000000000
0.9990234226 0.6240177005 0.0000000000
0.9990234226 0.6210879683 0.0000000000
0.9990234226 0.6191348135 0.0000000000
0.0000000000 0.7617151141 0.0000000000
0.0419928283 0.7568322271 0.0000000000
0.0839856565 0.7519493400 0.0000000000
0.1240253300 0.7470664530 0.0000000000
0.1650415808 0.7421835660 0.0000000000
0.2050812543 0.7373006790 0.0000000000
0.2441443503 0.7333943694 0.0000000000
0.2832074464 0.7285114824 0.0000000000
0.3222705425 0.7246051728 0.0000000000
0.3603570611 0.7206988632 0.0000000000
0.3984435798 0.7167925536 0.0000000000
0.4355535210 0.7119096666 0.0000000000
0.4726634623 0.7080033570 0.0000000000
0.5087815671 0.7050736248 0.0000000000
0.5449149310 0.7011673152 0.0000000000
0.5810482948 0.6972610056 0.0000000000
0.6162050813 0.6933546960 0.0000000000
0.6523384451 0.6904249638 0.0000000000
0.6865186542 0.6865186542 0.0000000000
0.7216754406 0.6835889220 0.0000000000
0.7558556497 0.6806591897 0.0000000000
