SHADOW SAT.cube
LUT_3D_SIZE 5
0.0195315480 0.0195315480 0.0195315480
0.7617151141 0.0000000000 0.0000000000
0.9990234226 0.0000000000 0.0000000000
0.9990234226 0.0000000000 0.0000000000
0.9990234226 0.0000000000 0.0000000000
0.0000000000 0.4775463493 0.0000000000
0.4277409018 0.4277409018 0.0000000000
0.7822232395 0.3916075380 0.0000000000
0.9990234226 0.3642633707 0.0000000000
0.9990234226 0.3427786679 0.0000000000
0.0000000000 0.7099565118 0.0000000000
0.3359426261 0.6708934157 0.0000000000
0.6386663615 0.6386663615 0.0000000000
0.9189440757 0.6122987716 0.0000000000
0.9990234226 0.5908140688 0.0000000000
0.0000000000 0.9062485695 0.0000000000
0.2919966430 0.8749980926 0.0000000000
0.5654230564 0.8486305028 0.0000000000
0.8261692226 0.8261692226 0.0000000000
0.9990234226 0.8076142519 0.0000000000
0.0000000000 0.9990234226 0.0000000000
0.2675822080 0.9990234226 0.0000000000
0.5244068055 0.9990234226 0.0000000000
0.7734340429 0.9990234226 0.0000000000
0.9990234226 0.9990234226 0.0000000000
0.0087891966 0.0087891966 0.9990234226
0.6816357671 0.0000000000 0.6816357671
0.9990234226 0.0000000000 0.5468680858
0.9990234226 0.0000000000 0.4716868849
0.9990234226 0.0000000000 0.4228580148
0.0000000000 0.4580148013 0.4580148013
0.4140688182 0.4140688182 0.4140688182
0.7626916915 0.3808651865 0.3808651865
0.9990234226 0.3564507515 0.3564507515
0.9990234226 0.3359426261 0.3359426261
0.0000000000 0.6962844282 0.3476615549
0.3300831617 0.6591744869 0.3300831617
0.6298771649 0.6298771649 0.3144579232
0.9072251469 0.6044861524 0.3027389944
0.9990234226 0.5839780270 0.2919966430
0.0000000000 0.8945296407 0.2978561074
0.2880903334 0.8652323186 0.2880903334
0.5605401694 0.8408178836 0.2802777142
0.8193331807 0.8193331807 0.2734416724
0.9990234226 0.8017547875 0.2675822080
0.0000000000 0.9990234226 0.2714885176
0.2656290532 0.9990234226 0.2656290532
0.5214770733 0.9990234226 0.2607461662
0.7695277333 0.9990234226 0.2568398566
0.9990234226 0.9990234226 0.2529335470
0.0000000000 0.0000000000 0.9990234226
0.6240177005 0.0000000000 0.9990234226
0.9990234226 0.0000000000 0.9990234226
0.9990234226 0.0000000000 0.9062485695
0.9990234226 0.0000000000 0.8203097581
0.0000000000 0.4414129854 0.8828107118
0.4013733120 0.4013733120 0.8037079423
0.7441367208 0.3720759899 0.7441367208
0.9990234226 0.3486381323 0.6982375830
0.9990234226 0.3300831617 0.6611276417
0.0000000000 0.6826123445 0.6826123445
0.3242236973 0.6484321355 0.6484321355
0.6201113909 0.6201113909 0.6201113909
0.8955062181 0.5976501106 0.5976501106
0.9990234226 0.5781185626 0.5781185626
0.0000000000 0.8837872892 0.5898374914
0.2851606012 0.8564431220 0.5712825208
0.5556572824 0.8330052644 0.5556572824
0.8134737163 0.8134737163 0.5419851987
0.9990234226 0.7958953231 0.5312428473
0.0000000000 0.9990234226 0.5380788891
0.2636758984 0.9990234226 0.5273365377
0.5175707637 0.9990234226 0.5175707637
0.7656214237 0.9990234226 0.5097581445
0.9990234226 0.9990234226 0.5038986801
0.0000000000 0.0000000000 0.9990234226
0.5800717174 0.0000000000 0.9990234226
0.9843747616 0.0000000000 0.9990234226
0.9990234226 0.0000000000 0.9990234226
0.9990234226 0.0000000000 0.9990234226
0.0000000000 0.4267643244 0.9990234226
0.3906309606 0.3906309606 0.9990234226
0.7265583276 0.3632867933 0.9990234226
0.9990234226 0.3418020905 0.9990234226
0.9990234226 0.3252002747 0.9746089876
0.0000000000 0.6699168383 0.9990234226
0.3193408103 0.6386663615 0.9580071717
0.6122987716 0.6122987716 0.9179674983
0.8847638666 0.5898374914 0.8847638666
0.9990234226 0.5712825208 0.8574196994
0.0000000000 0.8740215152 0.8740215152
0.2832074464 0.8486305028 0.8486305028
0.5507743954 0.8261692226 0.8261692226
0.8066376745 0.8066376745 0.8066376745
0.9990234226 0.7910124361 0.7910124361
0.0000000000 0.9990234226 0.8007782101
0.2617227436 0.9990234226 0.7861295491
0.5156176089 0.9990234226 0.7724574655
0.7617151141 0.9990234226 0.7617151141
0.9990234226 0.9990234226 0.7548790723
0.0000000000 0.0000000000 0.9990234226
0.5449149310 0.0000000000 0.9990234226
0.9414053559 0.0000000000 0.9990234226
0.9990234226 0.0000000000 0.9990234226
0.9990234226 0.0000000000 0.9990234226
0.0000000000 0.4130922408 0.9990234226
0.3808651865 0.3808651865 0.9990234226
0.7109330892 0.3554741741 0.9990234226
0.9990234226 0.3359426261 0.9990234226
0.9990234226 0.3203173877 0.9990234226
0.0000000000 0.6581979095 0.9990234226
0.3144579232 0.6289005875 0.9990234226
0.6044861524 0.6044861524 0.9990234226
0.8749980926 0.5839780270 0.9990234226
0.9990234226 0.5663996338 0.9990234226
0.0000000000 0.8652323186 0.9990234226
0.2802777142 0.8398413062 0.9990234226
0.5458915084 0.8193331807 0.9990234226
0.8007782101 0.8007782101 0.9990234226
0.9990234226 0.7861295491 0.9990234226
0.0000000000 0.9990234226 0.9990234226
0.2607461662 0.9990234226 0.9990234226
0.5126878767 0.9990234226 0.9990234226
0.7587853819 0.9990234226 0.9990234226
0.9990234226 0.9990234226 0.9990234226
